(G-CODE GENERATED BY FLATCAM v8.91 - www.flatcam.org - Version Date: 2019/02/23)

(Name: Hardware-B.Cu.gbr_iso_cnc)
(Type: G-code from Geometry)
(Units: IN)

(Created on Friday, 26 April 2019 at 17:05)

(TOOL DIAMETER: 0.009 in)
(Feedrate: 3.0 in/min)
(Feedrate_Z: 3.0 in/min)
(Feedrate rapids 3.0 in/min)

(Z_Cut: -0.002 in)
(Z_Move: 0.1 in)
(Z Toolchange: 1.0 in)
(X,Y Toolchange: 0.0000, 0.0000 in)
(Z Start: None in)
(Z End: 2.0 in)
(Steps per circle: 64)
(Postprocessor Geometry: default)

(X range:    0.0335 ...    4.9315  in)
(Y range:   -2.1815 ...   -0.0130  in)

(Spindle Speed: None RPM)

G20
G90
G94

G01 F3.00
G00 Z0.1000

M03
G00 X0.0360 Y-0.4359
G01 F3.00
G01 Z-0.0020
G01 F3.00
G01 X0.0335 Y-0.4568
G01 X0.0336 Y-1.7485
G01 X0.0377 Y-1.7703
G01 X0.0470 Y-1.7895
G01 X0.0592 Y-1.8042
G01 X0.0748 Y-1.8156
G01 X0.0949 Y-1.8238
G01 X0.1168 Y-1.8265
G01 X2.0018 Y-1.8265
G01 X2.0292 Y-1.8302
G01 X2.0568 Y-1.8411
G01 X2.0808 Y-1.8585
G01 X2.0985 Y-1.8794
G01 X2.1049 Y-1.8896
G01 X2.1102 Y-1.8918
G01 X2.1134 Y-1.8916
G01 X2.1163 Y-1.8903
G01 X2.1195 Y-1.8867
G01 X2.1206 Y-1.8824
G01 X2.1205 Y-1.6848
G01 X2.1180 Y-1.6796
G01 X2.0831 Y-1.6447
G01 X2.0777 Y-1.6420
G01 X0.1988 Y-1.6419
G01 X0.1950 Y-1.6425
G01 X0.1835 Y-1.6402
G01 X0.1738 Y-1.6337
G01 X0.1669 Y-1.6260
G01 X0.0708 Y-1.5299
G01 X0.0677 Y-1.5276
G01 X0.0612 Y-1.5179
G01 X0.0589 Y-1.5064
G01 X0.0595 Y-1.5026
G01 X0.0595 Y-0.9888
G01 X0.0589 Y-0.9850
G01 X0.0612 Y-0.9735
G01 X0.0677 Y-0.9638
G01 X0.0741 Y-0.9592
G01 X0.1015 Y-0.9312
G01 X0.1025 Y-0.9271
G01 X0.1025 Y-0.9015
G01 X0.1039 Y-0.8945
G01 X0.1074 Y-0.8894
G01 X0.1125 Y-0.8859
G01 X0.1195 Y-0.8845
G01 X0.1845 Y-0.8845
G01 X0.1915 Y-0.8859
G01 X0.2003 Y-0.8912
G01 X0.2040 Y-0.8915
G01 X0.2071 Y-0.8906
G01 X0.3036 Y-0.7946
G01 X0.3056 Y-0.7891
G01 X0.3051 Y-0.7649
G01 X0.3016 Y-0.7602
G01 X0.2955 Y-0.7581
G01 X0.2904 Y-0.7546
G01 X0.2869 Y-0.7495
G01 X0.2855 Y-0.7425
G01 X0.2855 Y-0.6775
G01 X0.2869 Y-0.6705
G01 X0.2904 Y-0.6654
G01 X0.2955 Y-0.6619
G01 X0.3025 Y-0.6605
G01 X0.3675 Y-0.6605
G01 X0.3745 Y-0.6619
G01 X0.3796 Y-0.6654
G01 X0.3831 Y-0.6705
G01 X0.3845 Y-0.6775
G01 X0.3845 Y-0.7425
G01 X0.3831 Y-0.7495
G01 X0.3796 Y-0.7546
G01 X0.3745 Y-0.7581
G01 X0.3684 Y-0.7602
G01 X0.3649 Y-0.7649
G01 X0.3644 Y-0.7944
G01 X0.3651 Y-0.7978
G01 X0.3672 Y-0.8012
G01 X0.4822 Y-0.9155
G01 X0.4866 Y-0.9166
G01 X0.7976 Y-0.9166
G01 X0.8022 Y-0.9154
G01 X0.8118 Y-0.9090
G01 X0.8225 Y-0.9069
G01 X0.8565 Y-0.9069
G01 X0.8672 Y-0.9090
G01 X0.8748 Y-0.9134
G01 X0.8781 Y-0.9136
G01 X0.8817 Y-0.9124
G01 X0.8845 Y-0.9099
G01 X0.8862 Y-0.9066
G01 X0.8860 Y-0.8990
G01 X0.8880 Y-0.8891
G01 X0.8936 Y-0.8806
G01 X0.9436 Y-0.8306
G01 X0.9521 Y-0.8250
G01 X0.9620 Y-0.8230
G01 X1.0870 Y-0.8230
G01 X1.0969 Y-0.8250
G01 X1.1054 Y-0.8306
G01 X1.1464 Y-0.8717
G01 X1.1521 Y-0.8801
G01 X1.1534 Y-0.8863
G01 X1.1557 Y-0.8899
G01 X1.1603 Y-0.8924
G01 X1.1657 Y-0.8920
G01 X1.1691 Y-0.8899
G01 X1.3616 Y-0.6966
G01 X1.3701 Y-0.6910
G01 X1.3800 Y-0.6890
G01 X2.0070 Y-0.6895
G01 X2.0112 Y-0.6884
G01 X2.0141 Y-0.6860
G01 X2.0159 Y-0.6827
G01 X2.0173 Y-0.6755
G01 X2.0207 Y-0.6704
G01 X2.0259 Y-0.6669
G01 X2.0329 Y-0.6655
G01 X2.0979 Y-0.6655
G01 X2.1049 Y-0.6669
G01 X2.1100 Y-0.6704
G01 X2.1134 Y-0.6755
G01 X2.1160 Y-0.6851
G01 X2.1187 Y-0.6878
G01 X2.1220 Y-0.6893
G01 X2.2063 Y-0.6895
G01 X2.2094 Y-0.6887
G01 X2.2120 Y-0.6869
G01 X2.2801 Y-0.6181
G01 X2.2885 Y-0.6125
G01 X2.2985 Y-0.6105
G01 X2.3881 Y-0.6110
G01 X2.3921 Y-0.6139
G01 X2.3985 Y-0.6170
G01 X2.4100 Y-0.6190
G01 X2.4215 Y-0.6170
G01 X2.4279 Y-0.6139
G01 X2.4319 Y-0.6110
G01 X2.4549 Y-0.6106
G01 X2.4585 Y-0.6084
G01 X2.4797 Y-0.5872
G01 X2.4823 Y-0.5825
G01 X2.4824 Y-0.4666
G01 X2.4804 Y-0.4619
G01 X2.4723 Y-0.4560
G01 X2.4652 Y-0.4457
G01 X2.4623 Y-0.4438
G01 X2.4585 Y-0.4430
G01 X2.4551 Y-0.4437
G01 X2.4520 Y-0.4456
G01 X2.4419 Y-0.4581
G01 X2.4284 Y-0.4656
G01 X2.4284 Y-0.4540
G01 X2.4342 Y-0.4502
G01 X2.4399 Y-0.4445
G01 X2.4446 Y-0.4372
G01 X2.4464 Y-0.4328
G01 X2.4483 Y-0.4244
G01 X2.4485 Y-0.3995
G01 X2.4464 Y-0.3872
G01 X2.4425 Y-0.3791
G01 X2.4342 Y-0.3698
G01 X2.4245 Y-0.3641
G01 X2.4245 Y-0.3530
G01 X2.4252 Y-0.3526
G01 X2.4419 Y-0.3619
G01 X2.4513 Y-0.3736
G01 X2.4542 Y-0.3759
G01 X2.4597 Y-0.3769
G01 X2.4645 Y-0.3749
G01 X2.4723 Y-0.3640
G01 X2.4793 Y-0.3593
G01 X2.4817 Y-0.3559
G01 X2.4825 Y-0.3521
G01 X2.4820 Y-0.3378
G01 X2.4840 Y-0.3279
G01 X2.4896 Y-0.3195
G01 X2.6000 Y-0.2091
G01 X2.6084 Y-0.2035
G01 X2.6183 Y-0.2015
G01 X2.8090 Y-0.2020
G01 X2.8142 Y-0.2004
G01 X2.8676 Y-0.1473
G01 X2.8699 Y-0.1435
G01 X2.8704 Y-0.1399
G01 X2.8696 Y-0.1368
G01 X2.8619 Y-0.1270
G01 X2.8605 Y-0.1200
G01 X2.8605 Y-0.0550
G01 X2.8619 Y-0.0480
G01 X2.8666 Y-0.0420
G01 X2.9534 Y-0.0420
G01 X2.9546 Y-0.0429
G01 X2.9606 Y-0.0527
G01 X2.9637 Y-0.0548
G01 X2.9672 Y-0.0556
G01 X2.9724 Y-0.0541
G01 X2.9900 Y-0.0420
G01 X3.0300 Y-0.0420
G01 X3.0453 Y-0.0522
G01 X3.0540 Y-0.0645
G01 X3.0567 Y-0.0660
G01 X3.0600 Y-0.0666
G01 X3.0633 Y-0.0660
G01 X3.0660 Y-0.0645
G01 X3.0747 Y-0.0522
G01 X3.0900 Y-0.0420
G01 X3.1300 Y-0.0420
G01 X3.1453 Y-0.0522
G01 X3.1546 Y-0.0653
G01 X3.1574 Y-0.0669
G01 X3.1606 Y-0.0674
G01 X3.1641 Y-0.0667
G01 X3.1668 Y-0.0651
G01 X3.1707 Y-0.0586
G01 X3.1850 Y-0.0456
G01 X3.1920 Y-0.0427
G01 X3.1955 Y-0.0462
G01 X3.1955 Y-0.0525
G01 X3.1861 Y-0.0580
G01 X3.1780 Y-0.0671
G01 X3.1741 Y-0.0752
G01 X3.1723 Y-0.0830
G01 X3.1720 Y-0.0878
G01 X3.1741 Y-0.0998
G01 X3.1780 Y-0.1079
G01 X3.1861 Y-0.1170
G01 X3.1955 Y-0.1225
G01 X3.1955 Y-0.1337
G01 X3.1850 Y-0.1294
G01 X3.1707 Y-0.1164
G01 X3.1668 Y-0.1099
G01 X3.1641 Y-0.1083
G01 X3.1606 Y-0.1076
G01 X3.1569 Y-0.1083
G01 X3.1539 Y-0.1103
G01 X3.1453 Y-0.1228
G01 X3.1383 Y-0.1277
G01 X3.1358 Y-0.1321
G01 X3.1358 Y-0.1662
G01 X3.1371 Y-0.1690
G01 X3.1398 Y-0.1721
G01 X3.1452 Y-0.1850
G01 X3.1452 Y-0.1933
G01 X3.1462 Y-0.1968
G01 X3.1494 Y-0.2004
G01 X3.1539 Y-0.2020
G01 X3.3090 Y-0.2020
G01 X3.3147 Y-0.2001
G01 X3.3651 Y-0.1498
G01 X3.3674 Y-0.1460
G01 X3.3679 Y-0.1424
G01 X3.3671 Y-0.1393
G01 X3.3594 Y-0.1295
G01 X3.3580 Y-0.1225
G01 X3.3580 Y-0.0575
G01 X3.3594 Y-0.0505
G01 X3.3629 Y-0.0454
G01 X3.3679 Y-0.0420
G01 X3.4471 Y-0.0420
G01 X3.4521 Y-0.0454
G01 X3.4586 Y-0.0557
G01 X3.4612 Y-0.0573
G01 X3.4647 Y-0.0581
G01 X3.4699 Y-0.0566
G01 X3.4884 Y-0.0439
G01 X3.4978 Y-0.0420
G01 X3.5172 Y-0.0420
G01 X3.5266 Y-0.0439
G01 X3.5428 Y-0.0547
G01 X3.5508 Y-0.0663
G01 X3.5537 Y-0.0683
G01 X3.5575 Y-0.0691
G01 X3.5613 Y-0.0683
G01 X3.5642 Y-0.0663
G01 X3.5722 Y-0.0547
G01 X3.5884 Y-0.0439
G01 X3.5978 Y-0.0420
G01 X3.6172 Y-0.0420
G01 X3.6266 Y-0.0439
G01 X3.6428 Y-0.0547
G01 X3.6521 Y-0.0678
G01 X3.6549 Y-0.0694
G01 X3.6580 Y-0.0699
G01 X3.6611 Y-0.0694
G01 X3.6639 Y-0.0679
G01 X3.6660 Y-0.0656
G01 X3.6682 Y-0.0611
G01 X3.6825 Y-0.0481
G01 X3.6895 Y-0.0452
G01 X3.6930 Y-0.0487
G01 X3.6930 Y-0.0550
G01 X3.6836 Y-0.0605
G01 X3.6755 Y-0.0696
G01 X3.6716 Y-0.0777
G01 X3.6698 Y-0.0855
G01 X3.6695 Y-0.0903
G01 X3.6716 Y-0.1023
G01 X3.6755 Y-0.1104
G01 X3.6836 Y-0.1195
G01 X3.6930 Y-0.1250
G01 X3.6930 Y-0.1362
G01 X3.6825 Y-0.1319
G01 X3.6682 Y-0.1189
G01 X3.6643 Y-0.1124
G01 X3.6616 Y-0.1108
G01 X3.6581 Y-0.1101
G01 X3.6544 Y-0.1108
G01 X3.6514 Y-0.1128
G01 X3.6428 Y-0.1253
G01 X3.6358 Y-0.1302
G01 X3.6333 Y-0.1346
G01 X3.6333 Y-0.1652
G01 X3.6346 Y-0.1680
G01 X3.6373 Y-0.1711
G01 X3.6427 Y-0.1840
G01 X3.6427 Y-0.1933
G01 X3.6435 Y-0.1964
G01 X3.6465 Y-0.2001
G01 X3.6509 Y-0.2019
G01 X3.6561 Y-0.2018
G01 X3.6604 Y-0.1998
G01 X3.6929 Y-0.1666
G01 X3.7013 Y-0.1610
G01 X3.7112 Y-0.1590
G01 X3.8450 Y-0.1595
G01 X3.8515 Y-0.1654
G01 X3.8555 Y-0.1671
G01 X3.8590 Y-0.1675
G01 X4.3372 Y-0.1675
G01 X4.4345 Y-0.2648
G01 X4.4349 Y-0.5117
G01 X4.4366 Y-0.5157
G01 X4.4387 Y-0.5185
G01 X4.5107 Y-0.5904
G01 X4.5157 Y-0.5936
G01 X4.5208 Y-0.5945
G01 X4.8190 Y-0.5945
G01 X4.8955 Y-0.6710
G01 X4.8955 Y-1.2110
G01 X4.8484 Y-1.2584
G01 X4.8399 Y-1.2640
G01 X4.8300 Y-1.2660
G01 X4.7891 Y-1.2659
G01 X4.7852 Y-1.2683
G01 X4.7803 Y-1.2753
G01 X4.7677 Y-1.2844
G01 X4.7659 Y-1.2892
G01 X4.7669 Y-1.2942
G01 X4.7695 Y-1.2974
G01 X4.7803 Y-1.3047
G01 X4.7911 Y-1.3209
G01 X4.7949 Y-1.3400
G01 X4.7911 Y-1.3591
G01 X4.7803 Y-1.3753
G01 X4.7650 Y-1.3855
G01 X4.7289 Y-1.3855
G01 X4.6995 Y-1.3561
G01 X4.6995 Y-1.3200
G01 X4.7097 Y-1.3047
G01 X4.7220 Y-1.2960
G01 X4.7235 Y-1.2933
G01 X4.7241 Y-1.2900
G01 X4.7235 Y-1.2867
G01 X4.7220 Y-1.2840
G01 X4.7097 Y-1.2753
G01 X4.6995 Y-1.2600
G01 X4.6995 Y-1.2200
G01 X4.7097 Y-1.2047
G01 X4.7231 Y-1.1950
G01 X4.7245 Y-1.1922
G01 X4.7249 Y-1.1890
G01 X4.7242 Y-1.1859
G01 X4.7224 Y-1.1831
G01 X4.7305 Y-1.1750
G01 X4.7367 Y-1.1770
G01 X4.7450 Y-1.1780
G01 X4.7532 Y-1.1771
G01 X4.7612 Y-1.1743
G01 X4.7685 Y-1.1698
G01 X4.7720 Y-1.1667
G01 X4.7770 Y-1.1604
G01 X4.7800 Y-1.1545
G01 X4.7913 Y-1.1545
G01 X4.7869 Y-1.1650
G01 X4.7739 Y-1.1793
G01 X4.7674 Y-1.1832
G01 X4.7656 Y-1.1864
G01 X4.7652 Y-1.1906
G01 X4.7660 Y-1.1936
G01 X4.7678 Y-1.1961
G01 X4.7803 Y-1.2047
G01 X4.7848 Y-1.2113
G01 X4.7881 Y-1.2137
G01 X4.7917 Y-1.2145
G01 X4.8155 Y-1.2145
G01 X4.8198 Y-1.2134
G01 X4.8503 Y-1.1836
G01 X4.8519 Y-1.1809
G01 X4.8525 Y-1.1775
G01 X4.8525 Y-1.0457
G01 X4.8509 Y-1.0413
G01 X4.8478 Y-1.0383
G01 X4.8433 Y-1.0370
G01 X4.8391 Y-1.0378
G01 X4.8363 Y-1.0398
G01 X4.8184 Y-1.0584
G01 X4.8099 Y-1.0640
G01 X4.8000 Y-1.0660
G01 X4.7917 Y-1.0655
G01 X4.7877 Y-1.0665
G01 X4.7848 Y-1.0687
G01 X4.7803 Y-1.0753
G01 X4.7672 Y-1.0846
G01 X4.7651 Y-1.0899
G01 X4.7665 Y-1.0955
G01 X4.7690 Y-1.0982
G01 X4.7739 Y-1.1007
G01 X4.7869 Y-1.1150
G01 X4.7912 Y-1.1255
G01 X4.7800 Y-1.1255
G01 X4.7745 Y-1.1161
G01 X4.7654 Y-1.1080
G01 X4.7573 Y-1.1041
G01 X4.7450 Y-1.1020
G01 X4.7327 Y-1.1041
G01 X4.7246 Y-1.1080
G01 X4.7155 Y-1.1161
G01 X4.7100 Y-1.1255
G01 X4.6988 Y-1.1255
G01 X4.7031 Y-1.1150
G01 X4.7161 Y-1.1007
G01 X4.7226 Y-1.0968
G01 X4.7242 Y-1.0941
G01 X4.7249 Y-1.0906
G01 X4.7244 Y-1.0874
G01 X4.7228 Y-1.0846
G01 X4.7097 Y-1.0753
G01 X4.6989 Y-1.0591
G01 X4.6951 Y-1.0400
G01 X4.6989 Y-1.0209
G01 X4.7097 Y-1.0047
G01 X4.7220 Y-0.9960
G01 X4.7235 Y-0.9933
G01 X4.7241 Y-0.9900
G01 X4.7235 Y-0.9867
G01 X4.7220 Y-0.9840
G01 X4.7097 Y-0.9753
G01 X4.6989 Y-0.9591
G01 X4.6951 Y-0.9400
G01 X4.6989 Y-0.9209
G01 X4.7116 Y-0.9024
G01 X4.7131 Y-0.8972
G01 X4.7123 Y-0.8937
G01 X4.7102 Y-0.8906
G01 X4.7004 Y-0.8846
G01 X4.6969 Y-0.8795
G01 X4.6955 Y-0.8725
G01 X4.6955 Y-0.8075
G01 X4.6969 Y-0.8005
G01 X4.7004 Y-0.7954
G01 X4.7055 Y-0.7919
G01 X4.7125 Y-0.7905
G01 X4.7753 Y-0.7905
G01 X4.7807 Y-0.7886
G01 X4.7832 Y-0.7859
G01 X4.7845 Y-0.7819
G01 X4.7844 Y-0.7332
G01 X4.7823 Y-0.7284
G01 X4.7672 Y-0.7133
G01 X4.7618 Y-0.7106
G01 X4.6545 Y-0.7105
G01 X4.6502 Y-0.7116
G01 X4.6472 Y-0.7139
G01 X4.6455 Y-0.7171
G01 X4.6450 Y-0.7208
G01 X4.6461 Y-0.7243
G01 X4.6684 Y-0.7466
G01 X4.6740 Y-0.7551
G01 X4.6760 Y-0.7650
G01 X4.6755 Y-1.1890
G01 X4.6718 Y-1.1939
G01 X4.6705 Y-1.2000
G01 X4.6705 Y-1.3623
G01 X4.6718 Y-1.3682
G01 X4.6755 Y-1.3731
G01 X4.6760 Y-1.4350
G01 X4.6740 Y-1.4449
G01 X4.6684 Y-1.4534
G01 X4.5634 Y-1.5584
G01 X4.5549 Y-1.5640
G01 X4.5450 Y-1.5660
G01 X4.3301 Y-1.5655
G01 X4.3266 Y-1.5662
G01 X4.3234 Y-1.5683
G01 X4.3213 Y-1.5714
G01 X4.3206 Y-1.5752
G01 X4.3240 Y-1.5850
G01 X4.3240 Y-1.6029
G01 X4.3171 Y-1.6194
G01 X4.3103 Y-1.6264
G01 X4.3084 Y-1.6313
G01 X4.3084 Y-1.7658
G01 X4.3090 Y-1.7696
G01 X4.3067 Y-1.7811
G01 X4.3002 Y-1.7908
G01 X4.2970 Y-1.7931
G01 X4.0221 Y-2.0681
G01 X3.9721 Y-2.1181
G01 X3.9698 Y-2.1212
G01 X3.9600 Y-2.1277
G01 X3.9485 Y-2.1300
G01 X3.9447 Y-2.1294
G01 X3.2543 Y-2.1294
G01 X3.2510 Y-2.1301
G01 X3.2390 Y-2.1350
G01 X3.2210 Y-2.1350
G01 X3.2090 Y-2.1302
G01 X3.2012 Y-2.1294
G01 X2.3467 Y-2.1294
G01 X2.3429 Y-2.1300
G01 X2.3314 Y-2.1277
G01 X2.3217 Y-2.1212
G01 X2.3194 Y-2.1181
G01 X2.1345 Y-1.9333
G01 X2.1311 Y-1.9311
G01 X2.1269 Y-1.9305
G01 X2.1238 Y-1.9314
G01 X2.1211 Y-1.9332
G01 X2.1191 Y-1.9363
G01 X2.1183 Y-1.9395
G01 X2.1186 Y-2.1039
G01 X2.1227 Y-2.1253
G01 X2.1308 Y-2.1425
G01 X2.1452 Y-2.1600
G01 X2.1606 Y-2.1711
G01 X2.1786 Y-2.1784
G01 X2.2018 Y-2.1815
G01 X4.3996 Y-2.1815
G01 X4.4050 Y-2.1813
G01 X4.4240 Y-2.1776
G01 X4.4437 Y-2.1686
G01 X4.4592 Y-2.1558
G01 X4.4714 Y-2.1389
G01 X4.4788 Y-2.1199
G01 X4.4815 Y-2.0982
G01 X4.4815 Y-1.7982
G01 X4.4852 Y-1.7708
G01 X4.4951 Y-1.7453
G01 X4.4978 Y-1.7405
G01 X4.5135 Y-1.7192
G01 X4.5344 Y-1.7015
G01 X4.5391 Y-1.6986
G01 X4.5631 Y-1.6875
G01 X4.5924 Y-1.6818
G01 X4.8496 Y-1.6815
G01 X4.8550 Y-1.6813
G01 X4.8743 Y-1.6776
G01 X4.8937 Y-1.6686
G01 X4.9092 Y-1.6558
G01 X4.9214 Y-1.6389
G01 X4.9288 Y-1.6201
G01 X4.9315 Y-1.5982
G01 X4.9315 Y-0.6004
G01 X4.9313 Y-0.5950
G01 X4.9273 Y-0.5747
G01 X4.9186 Y-0.5563
G01 X4.9058 Y-0.5408
G01 X4.8889 Y-0.5286
G01 X4.8701 Y-0.5212
G01 X4.8482 Y-0.5185
G01 X4.5982 Y-0.5185
G01 X4.5708 Y-0.5148
G01 X4.5453 Y-0.5049
G01 X4.5405 Y-0.5022
G01 X4.5209 Y-0.4880
G01 X4.5169 Y-0.4842
G01 X4.5002 Y-0.4637
G01 X4.4883 Y-0.4390
G01 X4.4867 Y-0.4338
G01 X4.4818 Y-0.4076
G01 X4.4815 Y-0.1004
G01 X4.4813 Y-0.0950
G01 X4.4776 Y-0.0760
G01 X4.4686 Y-0.0563
G01 X4.4558 Y-0.0408
G01 X4.4389 Y-0.0286
G01 X4.4199 Y-0.0212
G01 X4.3982 Y-0.0185
G01 X3.7450 Y-0.0185
G01 X3.7396 Y-0.0143
G01 X3.7335 Y-0.0130
G01 X2.7282 Y-0.0130
G01 X2.7221 Y-0.0143
G01 X2.7167 Y-0.0185
G01 X2.1961 Y-0.0186
G01 X2.1747 Y-0.0227
G01 X2.1563 Y-0.0314
G01 X2.1408 Y-0.0442
G01 X2.1283 Y-0.0616
G01 X2.1212 Y-0.0799
G01 X2.1185 Y-0.1015
G01 X2.1185 Y-0.2568
G01 X2.1148 Y-0.2842
G01 X2.1039 Y-0.3118
G01 X2.0865 Y-0.3358
G01 X2.0637 Y-0.3548
G01 X2.0390 Y-0.3667
G01 X2.0338 Y-0.3683
G01 X2.0100 Y-0.3729
G01 X2.0020 Y-0.3735
G01 X0.1115 Y-0.3736
G01 X0.0897 Y-0.3777
G01 X0.0705 Y-0.3870
G01 X0.0558 Y-0.3992
G01 X0.0444 Y-0.4148
G01 X0.0360 Y-0.4359
G00 Z0.1000
G00 X0.1143 Y-1.1300
G01 F3.00
G01 Z-0.0020
G01 F3.00
G01 X0.1143 Y-1.1380
G01 X0.1161 Y-1.1463
G01 X0.1179 Y-1.1507
G01 X0.1225 Y-1.1579
G01 X0.1281 Y-1.1635
G01 X0.1353 Y-1.1681
G01 X0.1397 Y-1.1699
G01 X0.1480 Y-1.1717
G01 X0.1602 Y-1.1711
G01 X0.1687 Y-1.1681
G01 X0.1787 Y-1.1610
G01 X0.1851 Y-1.1524
G01 X0.4214 Y-1.1524
G01 X0.5150 Y-1.2460
G01 X0.5202 Y-1.2497
G01 X0.5280 Y-1.2514
G01 X0.5874 Y-1.2514
G01 X0.5953 Y-1.2559
G01 X0.6000 Y-1.2570
G01 X0.6055 Y-1.2571
G01 X0.6133 Y-1.2549
G01 X0.6183 Y-1.2517
G01 X0.6236 Y-1.2456
G01 X0.6266 Y-1.2382
G01 X0.6272 Y-1.2330
G01 X0.6266 Y-1.2279
G01 X0.6234 Y-1.2200
G01 X0.6179 Y-1.2139
G01 X0.6133 Y-1.2111
G01 X0.6086 Y-1.2095
G01 X0.6030 Y-1.2088
G01 X0.5974 Y-1.2095
G01 X0.5923 Y-1.2113
G01 X0.5874 Y-1.2146
G01 X0.5356 Y-1.2146
G01 X0.4420 Y-1.1210
G01 X0.4386 Y-1.1183
G01 X0.4333 Y-1.1161
G01 X0.4290 Y-1.1156
G01 X0.1851 Y-1.1156
G01 X0.1787 Y-1.1070
G01 X0.1704 Y-1.1009
G01 X0.1704 Y-1.0671
G01 X0.1790 Y-1.0607
G01 X0.1863 Y-1.0503
G01 X0.1897 Y-1.0385
G01 X0.1900 Y-1.0337
G01 X0.1891 Y-1.0258
G01 X0.1861 Y-1.0173
G01 X0.1790 Y-1.0073
G01 X0.1720 Y-1.0017
G01 X0.1603 Y-0.9970
G01 X0.1523 Y-0.9960
G01 X0.1475 Y-0.9963
G01 X0.1397 Y-0.9981
G01 X0.1320 Y-1.0017
G01 X0.1281 Y-1.0045
G01 X0.1225 Y-1.0101
G01 X0.1179 Y-1.0173
G01 X0.1161 Y-1.0217
G01 X0.1140 Y-1.0340
G01 X0.1149 Y-1.0422
G01 X0.1163 Y-1.0468
G01 X0.1197 Y-1.0540
G01 X0.1225 Y-1.0579
G01 X0.1281 Y-1.0635
G01 X0.1336 Y-1.0671
G01 X0.1336 Y-1.1009
G01 X0.1253 Y-1.1070
G01 X0.1200 Y-1.1136
G01 X0.1161 Y-1.1217
G01 X0.1143 Y-1.1300
G00 Z0.1000
G00 X0.1143 Y-1.2300
G01 F3.00
G01 Z-0.0020
G01 F3.00
G01 X0.1149 Y-1.2422
G01 X0.1179 Y-1.2507
G01 X0.1250 Y-1.2607
G01 X0.1336 Y-1.2671
G01 X0.1336 Y-1.2782
G01 X0.1286 Y-1.2765
G01 X0.1239 Y-1.2774
G01 X0.1202 Y-1.2803
G01 X0.1184 Y-1.2852
G01 X0.1186 Y-1.4926
G01 X0.1211 Y-1.4970
G01 X0.2044 Y-1.5803
G01 X0.2098 Y-1.5830
G01 X0.2772 Y-1.5831
G01 X0.2810 Y-1.5823
G01 X0.2846 Y-1.5795
G01 X0.2866 Y-1.5752
G01 X0.2860 Y-1.5520
G01 X0.2970 Y-1.5520
G01 X0.2971 Y-1.5680
G01 X0.2987 Y-1.5705
G01 X0.3015 Y-1.5715
G01 X0.3695 Y-1.5714
G01 X0.3716 Y-1.5702
G01 X0.3729 Y-1.5680
G01 X0.3730 Y-1.5520
G01 X0.3840 Y-1.5520
G01 X0.3837 Y-1.5763
G01 X0.3850 Y-1.5790
G01 X0.3872 Y-1.5812
G01 X0.3928 Y-1.5831
G01 X2.0076 Y-1.5831
G01 X2.0132 Y-1.5812
G01 X2.0153 Y-1.5790
G01 X2.0167 Y-1.5763
G01 X2.0164 Y-1.5520
G01 X2.0274 Y-1.5520
G01 X2.0275 Y-1.5680
G01 X2.0291 Y-1.5705
G01 X2.0319 Y-1.5715
G01 X2.0998 Y-1.5714
G01 X2.1020 Y-1.5702
G01 X2.1032 Y-1.5680
G01 X2.1033 Y-1.5520
G01 X2.1143 Y-1.5520
G01 X2.1143 Y-1.5701
G01 X2.1090 Y-1.5809
G01 X2.1089 Y-1.5841
G01 X2.1100 Y-1.5876
G01 X2.1160 Y-1.5944
G01 X2.1681 Y-1.6465
G01 X2.1712 Y-1.6488
G01 X2.1777 Y-1.6585
G01 X2.1800 Y-1.6700
G01 X2.1794 Y-1.6738
G01 X2.1794 Y-1.8910
G01 X2.1801 Y-1.8944
G01 X2.1833 Y-1.9014
G01 X2.1870 Y-1.9066
G01 X2.2983 Y-2.0179
G01 X2.3031 Y-2.0214
G01 X2.3074 Y-2.0229
G01 X2.3523 Y-2.0678
G01 X2.3577 Y-2.0705
G01 X3.1832 Y-2.0706
G01 X3.1867 Y-2.0698
G01 X3.1893 Y-2.0682
G01 X3.1918 Y-2.0645
G01 X3.2045 Y-2.0518
G01 X3.2210 Y-2.0450
G01 X3.2300 Y-2.0449
G01 X3.2390 Y-2.0450
G01 X3.2555 Y-2.0518
G01 X3.2682 Y-2.0645
G01 X3.2707 Y-2.0682
G01 X3.2738 Y-2.0700
G01 X3.2768 Y-2.0706
G01 X3.9332 Y-2.0705
G01 X3.9363 Y-2.0697
G01 X3.9391 Y-2.0678
G01 X4.1238 Y-1.8831
G01 X4.1265 Y-1.8777
G01 X4.1264 Y-1.8745
G01 X4.1250 Y-1.8712
G01 X4.1228 Y-1.8688
G01 X4.1194 Y-1.8672
G01 X4.0949 Y-1.8669
G01 X4.0854 Y-1.8652
G01 X4.0809 Y-1.8663
G01 X3.9962 Y-1.9511
G01 X3.9878 Y-1.9568
G01 X3.9778 Y-1.9587
G01 X3.6207 Y-1.9582
G01 X3.6177 Y-1.9588
G01 X3.6150 Y-1.9604
G01 X3.6092 Y-1.9682
G01 X3.6010 Y-1.9737
G01 X3.5904 Y-1.9758
G01 X3.5730 Y-1.9758
G01 X3.5624 Y-1.9737
G01 X3.5541 Y-1.9682
G01 X3.5502 Y-1.9635
G01 X3.5456 Y-1.9618
G01 X3.5399 Y-1.9631
G01 X3.5354 Y-1.9682
G01 X3.5272 Y-1.9737
G01 X3.5165 Y-1.9758
G01 X3.4992 Y-1.9758
G01 X3.4886 Y-1.9737
G01 X3.4803 Y-1.9682
G01 X3.4747 Y-1.9606
G01 X3.4695 Y-1.9585
G01 X3.4357 Y-1.9586
G01 X3.4324 Y-1.9600
G01 X3.4293 Y-1.9628
G01 X3.4164 Y-1.9681
G01 X3.4024 Y-1.9681
G01 X3.3895 Y-1.9628
G01 X3.3796 Y-1.9529
G01 X3.3742 Y-1.9399
G01 X3.3742 Y-1.9259
G01 X3.3796 Y-1.9130
G01 X3.3895 Y-1.9031
G01 X3.4024 Y-1.8978
G01 X3.4164 Y-1.8978
G01 X3.4293 Y-1.9031
G01 X3.4323 Y-1.9058
G01 X3.4356 Y-1.9072
G01 X3.4691 Y-1.9074
G01 X3.4738 Y-1.9053
G01 X3.4803 Y-1.8963
G01 X3.4886 Y-1.8908
G01 X3.4992 Y-1.8887
G01 X3.5165 Y-1.8887
G01 X3.5272 Y-1.8908
G01 X3.5354 Y-1.8963
G01 X3.5398 Y-1.9013
G01 X3.5429 Y-1.9025
G01 X3.5462 Y-1.9026
G01 X3.5502 Y-1.9010
G01 X3.5541 Y-1.8963
G01 X3.5656 Y-1.8885
G01 X3.5679 Y-1.8848
G01 X3.5683 Y-1.8806
G01 X3.5661 Y-1.8757
G01 X3.5596 Y-1.8700
G01 X3.5565 Y-1.8692
G01 X3.5498 Y-1.8692
G01 X3.5349 Y-1.8662
G01 X3.5181 Y-1.8550
G01 X3.5114 Y-1.8453
G01 X3.5088 Y-1.8436
G01 X3.5056 Y-1.8427
G01 X3.5023 Y-1.8430
G01 X3.4989 Y-1.8447
G01 X3.4915 Y-1.8550
G01 X3.4747 Y-1.8662
G01 X3.4598 Y-1.8692
G01 X3.4498 Y-1.8692
G01 X3.4349 Y-1.8662
G01 X3.4179 Y-1.8549
G01 X3.4129 Y-1.8537
G01 X3.4076 Y-1.8557
G01 X3.4051 Y-1.8584
G01 X3.4034 Y-1.8624
G01 X3.3990 Y-1.8668
G01 X3.3933 Y-1.8692
G01 X3.3732 Y-1.8692
G01 X3.3732 Y-1.8582
G01 X3.3912 Y-1.8581
G01 X3.3937 Y-1.8565
G01 X3.3947 Y-1.8537
G01 X3.3946 Y-1.7818
G01 X3.3934 Y-1.7796
G01 X3.3907 Y-1.7783
G01 X3.3732 Y-1.7783
G01 X3.3732 Y-1.7673
G01 X3.3933 Y-1.7673
G01 X3.3990 Y-1.7697
G01 X3.4034 Y-1.7740
G01 X3.4068 Y-1.7801
G01 X3.4094 Y-1.7819
G01 X3.4124 Y-1.7827
G01 X3.4170 Y-1.7820
G01 X3.4222 Y-1.7786
G01 X3.4246 Y-1.7753
G01 X3.4254 Y-1.7715
G01 X3.4254 Y-1.7024
G01 X3.4249 Y-1.6993
G01 X3.4233 Y-1.6966
G01 X3.4171 Y-1.6921
G01 X3.4114 Y-1.6916
G01 X3.4065 Y-1.6944
G01 X3.4035 Y-1.7002
G01 X3.3991 Y-1.7045
G01 X3.3934 Y-1.7069
G01 X3.3732 Y-1.7069
G01 X3.3732 Y-1.6959
G01 X3.3913 Y-1.6958
G01 X3.3938 Y-1.6942
G01 X3.3948 Y-1.6914
G01 X3.3947 Y-1.6195
G01 X3.3935 Y-1.6173
G01 X3.3908 Y-1.6160
G01 X3.3732 Y-1.6160
G01 X3.3732 Y-1.6050
G01 X3.3934 Y-1.6050
G01 X3.3991 Y-1.6074
G01 X3.4035 Y-1.6117
G01 X3.4052 Y-1.6157
G01 X3.4077 Y-1.6185
G01 X3.4104 Y-1.6200
G01 X3.4136 Y-1.6205
G01 X3.4180 Y-1.6193
G01 X3.4319 Y-1.6100
G01 X3.4346 Y-1.6067
G01 X3.4355 Y-1.6024
G01 X3.4345 Y-1.5984
G01 X3.4319 Y-1.5951
G01 X3.4275 Y-1.5932
G01 X3.4029 Y-1.5770
G01 X3.3989 Y-1.5762
G01 X3.3934 Y-1.5779
G01 X3.3732 Y-1.5779
G01 X3.3732 Y-1.5669
G01 X3.3913 Y-1.5668
G01 X3.3938 Y-1.5652
G01 X3.3948 Y-1.5624
G01 X3.3947 Y-1.4905
G01 X3.3935 Y-1.4883
G01 X3.3908 Y-1.4870
G01 X3.3732 Y-1.4870
G01 X3.3732 Y-1.4760
G01 X3.3934 Y-1.4760
G01 X3.3995 Y-1.4776
G01 X3.4045 Y-1.4760
G01 X3.4213 Y-1.4648
G01 X3.4238 Y-1.4622
G01 X3.4253 Y-1.4578
G01 X3.4253 Y-1.4420
G01 X3.4243 Y-1.4386
G01 X3.4218 Y-1.4354
G01 X3.4160 Y-1.4317
G01 X3.4119 Y-1.4310
G01 X3.4070 Y-1.4327
G01 X3.3990 Y-1.4418
G01 X3.3933 Y-1.4442
G01 X3.3732 Y-1.4442
G01 X3.3732 Y-1.4332
G01 X3.3907 Y-1.4331
G01 X3.3934 Y-1.4319
G01 X3.3946 Y-1.4297
G01 X3.3947 Y-1.3578
G01 X3.3930 Y-1.3543
G01 X3.3902 Y-1.3533
G01 X3.3193 Y-1.3533
G01 X3.3162 Y-1.3546
G01 X3.3149 Y-1.3573
G01 X3.3150 Y-1.4297
G01 X3.3162 Y-1.4319
G01 X3.3189 Y-1.4331
G01 X3.3363 Y-1.4332
G01 X3.3363 Y-1.4442
G01 X3.3187 Y-1.4443
G01 X3.3135 Y-1.4468
G01 X3.3116 Y-1.4493
G01 X3.3106 Y-1.4524
G01 X3.3106 Y-1.4678
G01 X3.3127 Y-1.4726
G01 X3.3171 Y-1.4756
G01 X3.3363 Y-1.4760
G01 X3.3363 Y-1.4870
G01 X3.3190 Y-1.4870
G01 X3.3163 Y-1.4883
G01 X3.3151 Y-1.4905
G01 X3.3150 Y-1.5629
G01 X3.3163 Y-1.5656
G01 X3.3185 Y-1.5668
G01 X3.3363 Y-1.5669
G01 X3.3363 Y-1.5779
G01 X3.3192 Y-1.5779
G01 X3.3143 Y-1.5798
G01 X3.3121 Y-1.5821
G01 X3.3107 Y-1.5854
G01 X3.3105 Y-1.5963
G01 X3.3127 Y-1.6016
G01 X3.3171 Y-1.6046
G01 X3.3363 Y-1.6050
G01 X3.3363 Y-1.6160
G01 X3.3190 Y-1.6160
G01 X3.3166 Y-1.6170
G01 X3.3152 Y-1.6190
G01 X3.3149 Y-1.6914
G01 X3.3159 Y-1.6942
G01 X3.3185 Y-1.6958
G01 X3.3363 Y-1.6959
G01 X3.3363 Y-1.7069
G01 X3.3181 Y-1.7071
G01 X3.3143 Y-1.7088
G01 X3.3116 Y-1.7120
G01 X3.3105 Y-1.7164
G01 X3.3105 Y-1.7581
G01 X3.3121 Y-1.7631
G01 X3.3166 Y-1.7667
G01 X3.3197 Y-1.7673
G01 X3.3363 Y-1.7673
G01 X3.3363 Y-1.7783
G01 X3.3184 Y-1.7784
G01 X3.3158 Y-1.7800
G01 X3.3148 Y-1.7828
G01 X3.3150 Y-1.8547
G01 X3.3162 Y-1.8569
G01 X3.3189 Y-1.8581
G01 X3.3363 Y-1.8582
G01 X3.3363 Y-1.8692
G01 X3.3192 Y-1.8692
G01 X3.3143 Y-1.8711
G01 X3.3121 Y-1.8734
G01 X3.3107 Y-1.8767
G01 X3.3105 Y-1.8892
G01 X3.3115 Y-1.8931
G01 X3.3140 Y-1.8963
G01 X3.3293 Y-1.9031
G01 X3.3363 Y-1.9101
G01 X3.3363 Y-1.9416
G01 X3.3098 Y-1.9681
G01 X3.3024 Y-1.9681
G01 X3.2895 Y-1.9628
G01 X3.2840 Y-1.9581
G01 X3.2784 Y-1.9574
G01 X3.2755 Y-1.9584
G01 X3.2730 Y-1.9603
G01 X3.2682 Y-1.9705
G01 X3.2555 Y-1.9832
G01 X3.2476 Y-1.9864
G01 X3.2124 Y-1.9864
G01 X3.2045 Y-1.9832
G01 X3.1918 Y-1.9705
G01 X3.1850 Y-1.9540
G01 X3.1850 Y-1.9360
G01 X3.1918 Y-1.9195
G01 X3.1986 Y-1.9125
G01 X3.2005 Y-1.9076
G01 X3.2006 Y-1.8090
G01 X3.1998 Y-1.8052
G01 X3.1964 Y-1.8012
G01 X3.1921 Y-1.7995
G01 X3.1770 Y-1.8021
G01 X3.1430 Y-1.8021
G01 X3.1323 Y-1.8000
G01 X3.1279 Y-1.7972
G01 X3.1240 Y-1.7962
G01 X3.1188 Y-1.7976
G01 X3.1150 Y-1.8021
G01 X3.1144 Y-1.8068
G01 X3.1165 Y-1.8177
G01 X3.1137 Y-1.8318
G01 X3.1057 Y-1.8438
G01 X3.0938 Y-1.8518
G01 X3.0832 Y-1.8539
G01 X3.0584 Y-1.8539
G01 X3.0525 Y-1.8529
G01 X3.0473 Y-1.8545
G01 X2.9632 Y-1.9391
G01 X2.9548 Y-1.9448
G01 X2.9448 Y-1.9467
G01 X2.5788 Y-1.9462
G01 X2.5758 Y-1.9468
G01 X2.5731 Y-1.9484
G01 X2.5673 Y-1.9562
G01 X2.5591 Y-1.9617
G01 X2.5485 Y-1.9638
G01 X2.5311 Y-1.9638
G01 X2.5205 Y-1.9617
G01 X2.5122 Y-1.9562
G01 X2.5083 Y-1.9515
G01 X2.5032 Y-1.9498
G01 X2.4975 Y-1.9515
G01 X2.4935 Y-1.9562
G01 X2.4853 Y-1.9617
G01 X2.4746 Y-1.9638
G01 X2.4573 Y-1.9638
G01 X2.4467 Y-1.9617
G01 X2.4384 Y-1.9562
G01 X2.4339 Y-1.9494
G01 X2.4315 Y-1.9473
G01 X2.4192 Y-1.9443
G01 X2.4108 Y-1.9386
G01 X2.3995 Y-1.9267
G01 X2.3964 Y-1.9246
G01 X2.3904 Y-1.9242
G01 X2.3759 Y-1.9301
G01 X2.3619 Y-1.9301
G01 X2.3490 Y-1.9248
G01 X2.3402 Y-1.9160
G01 X2.3402 Y-1.8562
G01 X2.3582 Y-1.8561
G01 X2.3607 Y-1.8545
G01 X2.3617 Y-1.8517
G01 X2.3616 Y-1.7798
G01 X2.3604 Y-1.7776
G01 X2.3577 Y-1.7763
G01 X2.3403 Y-1.7763
G01 X2.3403 Y-1.7653
G01 X2.3603 Y-1.7653
G01 X2.3660 Y-1.7677
G01 X2.3704 Y-1.7720
G01 X2.3738 Y-1.7781
G01 X2.3764 Y-1.7799
G01 X2.3794 Y-1.7807
G01 X2.3840 Y-1.7800
G01 X2.3892 Y-1.7766
G01 X2.3916 Y-1.7733
G01 X2.3924 Y-1.7695
G01 X2.3924 Y-1.6979
G01 X2.3919 Y-1.6948
G01 X2.3903 Y-1.6921
G01 X2.3841 Y-1.6876
G01 X2.3784 Y-1.6871
G01 X2.3735 Y-1.6899
G01 X2.3705 Y-1.6957
G01 X2.3661 Y-1.7000
G01 X2.3604 Y-1.7024
G01 X2.3403 Y-1.7024
G01 X2.3403 Y-1.6914
G01 X2.3583 Y-1.6913
G01 X2.3608 Y-1.6897
G01 X2.3618 Y-1.6869
G01 X2.3617 Y-1.6150
G01 X2.3605 Y-1.6128
G01 X2.3578 Y-1.6115
G01 X2.3403 Y-1.6115
G01 X2.3403 Y-1.6005
G01 X2.3604 Y-1.6005
G01 X2.3661 Y-1.6029
G01 X2.3705 Y-1.6072
G01 X2.3722 Y-1.6112
G01 X2.3747 Y-1.6140
G01 X2.3774 Y-1.6155
G01 X2.3806 Y-1.6160
G01 X2.3850 Y-1.6148
G01 X2.4020 Y-1.6035
G01 X2.4169 Y-1.6005
G01 X2.4269 Y-1.6005
G01 X2.4418 Y-1.6035
G01 X2.4586 Y-1.6147
G01 X2.4618 Y-1.6192
G01 X2.4657 Y-1.6216
G01 X2.4959 Y-1.6220
G01 X2.4995 Y-1.6209
G01 X2.5024 Y-1.6185
G01 X2.5151 Y-1.5986
G01 X2.5274 Y-1.5899
G01 X2.5293 Y-1.5858
G01 X2.5292 Y-1.5816
G01 X2.5263 Y-1.5768
G01 X2.5151 Y-1.5692
G01 X2.5043 Y-1.5530
G01 X2.5033 Y-1.5492
G01 X2.5015 Y-1.5465
G01 X2.4985 Y-1.5443
G01 X2.4954 Y-1.5434
G01 X2.4657 Y-1.5438
G01 X2.4618 Y-1.5462
G01 X2.4586 Y-1.5507
G01 X2.4418 Y-1.5619
G01 X2.4269 Y-1.5649
G01 X2.4169 Y-1.5649
G01 X2.4020 Y-1.5619
G01 X2.3850 Y-1.5506
G01 X2.3806 Y-1.5494
G01 X2.3774 Y-1.5499
G01 X2.3747 Y-1.5514
G01 X2.3722 Y-1.5541
G01 X2.3705 Y-1.5582
G01 X2.3661 Y-1.5625
G01 X2.3604 Y-1.5649
G01 X2.3403 Y-1.5649
G01 X2.3403 Y-1.5539
G01 X2.3578 Y-1.5538
G01 X2.3605 Y-1.5526
G01 X2.3617 Y-1.5504
G01 X2.3618 Y-1.4785
G01 X2.3608 Y-1.4757
G01 X2.3583 Y-1.4741
G01 X2.3402 Y-1.4740
G01 X2.3402 Y-1.4630
G01 X2.3604 Y-1.4630
G01 X2.3661 Y-1.4654
G01 X2.3705 Y-1.4697
G01 X2.3735 Y-1.4754
G01 X2.3784 Y-1.4783
G01 X2.3836 Y-1.4779
G01 X2.3888 Y-1.4748
G01 X2.3911 Y-1.4721
G01 X2.3923 Y-1.4681
G01 X2.3921 Y-1.4206
G01 X2.3905 Y-1.4173
G01 X2.3881 Y-1.4150
G01 X2.3835 Y-1.4123
G01 X2.3794 Y-1.4118
G01 X2.3764 Y-1.4126
G01 X2.3738 Y-1.4143
G01 X2.3704 Y-1.4204
G01 X2.3660 Y-1.4248
G01 X2.3603 Y-1.4272
G01 X2.3402 Y-1.4272
G01 X2.3402 Y-1.4162
G01 X2.3577 Y-1.4161
G01 X2.3604 Y-1.4149
G01 X2.3616 Y-1.4127
G01 X2.3617 Y-1.3408
G01 X2.3600 Y-1.3373
G01 X2.3572 Y-1.3363
G01 X2.2863 Y-1.3363
G01 X2.2832 Y-1.3376
G01 X2.2819 Y-1.3403
G01 X2.2820 Y-1.4127
G01 X2.2832 Y-1.4149
G01 X2.2859 Y-1.4161
G01 X2.3033 Y-1.4162
G01 X2.3033 Y-1.4272
G01 X2.2833 Y-1.4272
G01 X2.2726 Y-1.4230
G01 X2.2689 Y-1.4234
G01 X2.2661 Y-1.4249
G01 X2.2636 Y-1.4276
G01 X2.2623 Y-1.4316
G01 X2.2623 Y-1.4586
G01 X2.2633 Y-1.4622
G01 X2.2652 Y-1.4647
G01 X2.2679 Y-1.4665
G01 X2.2710 Y-1.4673
G01 X2.2747 Y-1.4669
G01 X2.2834 Y-1.4630
G01 X2.3033 Y-1.4630
G01 X2.3033 Y-1.4740
G01 X2.2860 Y-1.4740
G01 X2.2833 Y-1.4753
G01 X2.2821 Y-1.4775
G01 X2.2819 Y-1.5494
G01 X2.2829 Y-1.5522
G01 X2.2855 Y-1.5538
G01 X2.3034 Y-1.5539
G01 X2.3034 Y-1.5649
G01 X2.2834 Y-1.5649
G01 X2.2726 Y-1.5606
G01 X2.2689 Y-1.5610
G01 X2.2661 Y-1.5625
G01 X2.2636 Y-1.5652
G01 X2.2624 Y-1.5687
G01 X2.2623 Y-1.5956
G01 X2.2629 Y-1.5987
G01 X2.2649 Y-1.6019
G01 X2.2674 Y-1.6038
G01 X2.2705 Y-1.6047
G01 X2.2747 Y-1.6044
G01 X2.2834 Y-1.6005
G01 X2.3034 Y-1.6005
G01 X2.3034 Y-1.6115
G01 X2.2855 Y-1.6116
G01 X2.2829 Y-1.6132
G01 X2.2819 Y-1.6160
G01 X2.2821 Y-1.6879
G01 X2.2833 Y-1.6901
G01 X2.2860 Y-1.6913
G01 X2.3034 Y-1.6914
G01 X2.3034 Y-1.7024
G01 X2.2834 Y-1.7024
G01 X2.2752 Y-1.6987
G01 X2.2718 Y-1.6981
G01 X2.2674 Y-1.6991
G01 X2.2642 Y-1.7018
G01 X2.2623 Y-1.7073
G01 X2.2623 Y-1.7603
G01 X2.2629 Y-1.7634
G01 X2.2649 Y-1.7665
G01 X2.2674 Y-1.7685
G01 X2.2705 Y-1.7694
G01 X2.2747 Y-1.7691
G01 X2.2833 Y-1.7653
G01 X2.3034 Y-1.7653
G01 X2.3034 Y-1.7763
G01 X2.2854 Y-1.7764
G01 X2.2828 Y-1.7780
G01 X2.2818 Y-1.7808
G01 X2.2820 Y-1.8527
G01 X2.2832 Y-1.8549
G01 X2.2859 Y-1.8561
G01 X2.3033 Y-1.8562
G01 X2.3033 Y-1.8696
G01 X2.3009 Y-1.8730
G01 X2.3002 Y-1.8769
G01 X2.3033 Y-1.8862
G01 X2.3033 Y-1.9037
G01 X2.2987 Y-1.9149
G01 X2.2888 Y-1.9248
G01 X2.2759 Y-1.9301
G01 X2.2626 Y-1.9301
G01 X2.2337 Y-1.9012
G01 X2.2334 Y-1.8974
G01 X2.2318 Y-1.8940
G01 X2.2184 Y-1.8813
G01 X2.2184 Y-1.6068
G01 X2.2165 Y-1.5986
G01 X2.2113 Y-1.5920
G01 X2.2108 Y-1.3508
G01 X2.2128 Y-1.3408
G01 X2.2184 Y-1.3324
G01 X2.2732 Y-1.2776
G01 X2.2817 Y-1.2719
G01 X2.2916 Y-1.2699
G01 X2.4916 Y-1.2699
G01 X2.5015 Y-1.2719
G01 X2.5100 Y-1.2776
G01 X2.5402 Y-1.3077
G01 X2.5458 Y-1.3162
G01 X2.5479 Y-1.3290
G01 X2.5491 Y-1.3321
G01 X2.5513 Y-1.3346
G01 X2.5585 Y-1.3395
G01 X2.5698 Y-1.3564
G01 X2.5737 Y-1.3762
G01 X2.5698 Y-1.3961
G01 X2.5585 Y-1.4130
G01 X2.5417 Y-1.4242
G01 X2.5268 Y-1.4272
G01 X2.5168 Y-1.4272
G01 X2.5019 Y-1.4242
G01 X2.4851 Y-1.4130
G01 X2.4792 Y-1.4042
G01 X2.4767 Y-1.4021
G01 X2.4710 Y-1.4007
G01 X2.4655 Y-1.4031
G01 X2.4585 Y-1.4130
G01 X2.4530 Y-1.4173
G01 X2.4512 Y-1.4229
G01 X2.4515 Y-1.4695
G01 X2.4537 Y-1.4736
G01 X2.4586 Y-1.4772
G01 X2.4618 Y-1.4817
G01 X2.4647 Y-1.4837
G01 X2.4685 Y-1.4845
G01 X2.5265 Y-1.4845
G01 X2.5304 Y-1.4839
G01 X2.5403 Y-1.4858
G01 X2.5456 Y-1.4850
G01 X2.5552 Y-1.4850
G01 X2.5695 Y-1.4878
G01 X2.5880 Y-1.5006
G01 X2.5932 Y-1.5020
G01 X2.5966 Y-1.5013
G01 X2.5998 Y-1.4991
G01 X2.6057 Y-1.4893
G01 X2.6109 Y-1.4859
G01 X2.6179 Y-1.4845
G01 X2.7371 Y-1.4843
G01 X2.7405 Y-1.4829
G01 X2.7432 Y-1.4801
G01 X2.7453 Y-1.4725
G01 X2.7488 Y-1.4673
G01 X2.7526 Y-1.4647
G01 X2.7546 Y-1.4621
G01 X2.7556 Y-1.4562
G01 X2.7533 Y-1.4513
G01 X2.7431 Y-1.4441
G01 X2.7366 Y-1.4343
G01 X2.7343 Y-1.4228
G01 X2.7348 Y-1.4190
G01 X2.7346 Y-1.3906
G01 X2.7327 Y-1.3869
G01 X2.7276 Y-1.3830
G01 X2.7209 Y-1.3733
G01 X2.7183 Y-1.3716
G01 X2.7151 Y-1.3707
G01 X2.7094 Y-1.3720
G01 X2.7069 Y-1.3742
G01 X2.7010 Y-1.3830
G01 X2.6842 Y-1.3942
G01 X2.6693 Y-1.3972
G01 X2.6593 Y-1.3972
G01 X2.6444 Y-1.3942
G01 X2.6276 Y-1.3830
G01 X2.6163 Y-1.3661
G01 X2.6124 Y-1.3462
G01 X2.6163 Y-1.3264
G01 X2.6276 Y-1.3095
G01 X2.6348 Y-1.3046
G01 X2.6370 Y-1.3021
G01 X2.6382 Y-1.2990
G01 X2.6403 Y-1.2862
G01 X2.6459 Y-1.2777
G01 X2.6684 Y-1.2552
G01 X2.6768 Y-1.2496
G01 X2.6868 Y-1.2476
G01 X2.9493 Y-1.2476
G01 X2.9593 Y-1.2496
G01 X2.9677 Y-1.2552
G01 X3.0209 Y-1.3091
G01 X3.0243 Y-1.3113
G01 X3.0297 Y-1.3117
G01 X3.0343 Y-1.3094
G01 X3.0413 Y-1.3080
G01 X3.0985 Y-1.3080
G01 X3.1054 Y-1.3094
G01 X3.1119 Y-1.3130
G01 X3.1166 Y-1.3130
G01 X3.1198 Y-1.3114
G01 X3.1220 Y-1.3092
G01 X3.1245 Y-1.3007
G01 X3.1300 Y-1.2925
G01 X3.1382 Y-1.2870
G01 X3.1489 Y-1.2849
G01 X3.1624 Y-1.2848
G01 X3.1676 Y-1.2822
G01 X3.3771 Y-1.0728
G01 X3.3797 Y-1.0675
G01 X3.3794 Y-1.0633
G01 X3.3777 Y-1.0601
G01 X3.3723 Y-1.0560
G01 X3.3646 Y-1.0448
G01 X3.3620 Y-1.0430
G01 X3.3588 Y-1.0422
G01 X3.3555 Y-1.0425
G01 X3.3522 Y-1.0442
G01 X3.3437 Y-1.0560
G01 X3.3273 Y-1.0669
G01 X3.3080 Y-1.0708
G01 X3.2887 Y-1.0669
G01 X3.2723 Y-1.0560
G01 X3.2638 Y-1.0442
G01 X3.2605 Y-1.0425
G01 X3.2561 Y-1.0424
G01 X3.2509 Y-1.0453
G01 X3.2437 Y-1.0560
G01 X3.2273 Y-1.0669
G01 X3.2080 Y-1.0708
G01 X3.1887 Y-1.0669
G01 X3.1723 Y-1.0560
G01 X3.1638 Y-1.0442
G01 X3.1610 Y-1.0426
G01 X3.1577 Y-1.0422
G01 X3.1522 Y-1.0442
G01 X3.1437 Y-1.0560
G01 X3.1273 Y-1.0669
G01 X3.1080 Y-1.0708
G01 X3.0887 Y-1.0669
G01 X3.0723 Y-1.0560
G01 X3.0638 Y-1.0442
G01 X3.0610 Y-1.0426
G01 X3.0577 Y-1.0422
G01 X3.0522 Y-1.0442
G01 X3.0437 Y-1.0560
G01 X3.0273 Y-1.0669
G01 X3.0080 Y-1.0708
G01 X2.9887 Y-1.0669
G01 X2.9723 Y-1.0560
G01 X2.9638 Y-1.0442
G01 X2.9610 Y-1.0426
G01 X2.9577 Y-1.0422
G01 X2.9522 Y-1.0442
G01 X2.9437 Y-1.0560
G01 X2.9273 Y-1.0669
G01 X2.9080 Y-1.0708
G01 X2.8887 Y-1.0669
G01 X2.8723 Y-1.0560
G01 X2.8638 Y-1.0442
G01 X2.8610 Y-1.0426
G01 X2.8577 Y-1.0422
G01 X2.8522 Y-1.0442
G01 X2.8437 Y-1.0560
G01 X2.8273 Y-1.0669
G01 X2.8080 Y-1.0708
G01 X2.7887 Y-1.0669
G01 X2.7723 Y-1.0560
G01 X2.7638 Y-1.0442
G01 X2.7610 Y-1.0426
G01 X2.7577 Y-1.0422
G01 X2.7522 Y-1.0442
G01 X2.7437 Y-1.0560
G01 X2.7273 Y-1.0669
G01 X2.7080 Y-1.0708
G01 X2.6887 Y-1.0669
G01 X2.6723 Y-1.0560
G01 X2.6638 Y-1.0442
G01 X2.6610 Y-1.0426
G01 X2.6577 Y-1.0422
G01 X2.6522 Y-1.0442
G01 X2.6437 Y-1.0560
G01 X2.6273 Y-1.0669
G01 X2.6080 Y-1.0708
G01 X2.5887 Y-1.0669
G01 X2.5723 Y-1.0560
G01 X2.5638 Y-1.0442
G01 X2.5610 Y-1.0426
G01 X2.5577 Y-1.0422
G01 X2.5522 Y-1.0442
G01 X2.5437 Y-1.0560
G01 X2.5273 Y-1.0669
G01 X2.5080 Y-1.0708
G01 X2.4887 Y-1.0669
G01 X2.4723 Y-1.0560
G01 X2.4638 Y-1.0442
G01 X2.4610 Y-1.0426
G01 X2.4577 Y-1.0422
G01 X2.4522 Y-1.0442
G01 X2.4437 Y-1.0560
G01 X2.4273 Y-1.0669
G01 X2.4080 Y-1.0708
G01 X2.3887 Y-1.0669
G01 X2.3703 Y-1.0547
G01 X2.3658 Y-1.0535
G01 X2.3624 Y-1.0541
G01 X2.3591 Y-1.0562
G01 X2.3532 Y-1.0655
G01 X2.3480 Y-1.0689
G01 X2.3411 Y-1.0703
G01 X2.2749 Y-1.0703
G01 X2.2680 Y-1.0689
G01 X2.2628 Y-1.0655
G01 X2.2594 Y-1.0603
G01 X2.2580 Y-1.0534
G01 X2.2580 Y-0.9666
G01 X2.2594 Y-0.9597
G01 X2.2628 Y-0.9545
G01 X2.2680 Y-0.9511
G01 X2.2749 Y-0.9497
G01 X2.3411 Y-0.9497
G01 X2.3480 Y-0.9511
G01 X2.3532 Y-0.9545
G01 X2.3591 Y-0.9638
G01 X2.3624 Y-0.9659
G01 X2.3658 Y-0.9665
G01 X2.3703 Y-0.9653
G01 X2.3887 Y-0.9531
G01 X2.4080 Y-0.9492
G01 X2.4273 Y-0.9531
G01 X2.4437 Y-0.9640
G01 X2.4522 Y-0.9758
G01 X2.4550 Y-0.9774
G01 X2.4583 Y-0.9778
G01 X2.4638 Y-0.9758
G01 X2.4723 Y-0.9640
G01 X2.4887 Y-0.9531
G01 X2.5080 Y-0.9492
G01 X2.5273 Y-0.9531
G01 X2.5437 Y-0.9640
G01 X2.5522 Y-0.9758
G01 X2.5550 Y-0.9774
G01 X2.5583 Y-0.9778
G01 X2.5638 Y-0.9758
G01 X2.5723 Y-0.9640
G01 X2.5887 Y-0.9531
G01 X2.6036 Y-0.9499
G01 X2.6066 Y-0.9480
G01 X2.6086 Y-0.9451
G01 X2.6093 Y-0.9395
G01 X2.6068 Y-0.9345
G01 X2.4365 Y-0.7643
G01 X2.4246 Y-0.7567
G01 X2.4141 Y-0.7537
G01 X2.4064 Y-0.7537
G01 X2.3990 Y-0.7553
G01 X2.3921 Y-0.7586
G01 X2.3881 Y-0.7615
G01 X2.3644 Y-0.7615
G01 X2.3614 Y-0.7623
G01 X2.3587 Y-0.7641
G01 X1.6211 Y-1.5024
G01 X1.6127 Y-1.5080
G01 X1.6027 Y-1.5100
G01 X1.0520 Y-1.5100
G01 X1.0421 Y-1.5080
G01 X1.0336 Y-1.5024
G01 X0.9917 Y-1.4605
G01 X0.9861 Y-1.4520
G01 X0.9845 Y-1.4473
G01 X0.9770 Y-1.4367
G01 X0.9749 Y-1.4260
G01 X0.9749 Y-1.3920
G01 X0.9770 Y-1.3813
G01 X0.9834 Y-1.3717
G01 X0.9845 Y-1.3672
G01 X0.9845 Y-1.3205
G01 X0.9822 Y-1.3095
G01 X0.9822 Y-1.2612
G01 X0.9812 Y-1.2572
G01 X0.9789 Y-1.2542
G01 X0.9761 Y-1.2526
G01 X0.9727 Y-1.2520
G01 X0.9633 Y-1.2521
G01 X0.9589 Y-1.2539
G01 X0.8881 Y-1.3252
G01 X0.8791 Y-1.3313
G01 X0.8767 Y-1.3341
G01 X0.8756 Y-1.3376
G01 X0.8758 Y-1.3408
G01 X0.8797 Y-1.3478
G01 X0.8818 Y-1.3584
G01 X0.8818 Y-1.3757
G01 X0.8797 Y-1.3864
G01 X0.8727 Y-1.3969
G01 X0.8715 Y-1.4019
G01 X0.8728 Y-1.4064
G01 X0.8790 Y-1.4129
G01 X0.8813 Y-1.4186
G01 X0.8813 Y-1.4257
G01 X0.8806 Y-1.4264
G01 X0.8694 Y-1.4264
G01 X0.8673 Y-1.4225
G01 X0.8642 Y-1.4197
G01 X0.8605 Y-1.4179
G01 X0.8562 Y-1.4172
G01 X0.8178 Y-1.4174
G01 X0.8112 Y-1.4206
G01 X0.8071 Y-1.4264
G01 X0.7959 Y-1.4264
G01 X0.7952 Y-1.4257
G01 X0.7952 Y-1.4186
G01 X0.7976 Y-1.4129
G01 X0.8037 Y-1.4064
G01 X0.8050 Y-1.4016
G01 X0.8038 Y-1.3969
G01 X0.7968 Y-1.3864
G01 X0.7947 Y-1.3757
G01 X0.7947 Y-1.3584
G01 X0.7968 Y-1.3478
G01 X0.8012 Y-1.3411
G01 X0.8021 Y-1.3372
G01 X0.8012 Y-1.3328
G01 X0.7968 Y-1.3261
G01 X0.7947 Y-1.3155
G01 X0.7947 Y-1.2982
G01 X0.7968 Y-1.2875
G01 X0.8023 Y-1.2793
G01 X0.8061 Y-1.2765
G01 X0.8081 Y-1.2734
G01 X0.8087 Y-1.2696
G01 X0.8079 Y-1.2659
G01 X0.8047 Y-1.2622
G01 X0.7978 Y-1.2586
G01 X0.7622 Y-1.2585
G01 X0.7583 Y-1.2593
G01 X0.7539 Y-1.2628
G01 X0.7410 Y-1.2682
G01 X0.7270 Y-1.2682
G01 X0.7141 Y-1.2628
G01 X0.7042 Y-1.2529
G01 X0.6988 Y-1.2400
G01 X0.6988 Y-1.2260
G01 X0.7042 Y-1.2131
G01 X0.7141 Y-1.2032
G01 X0.7270 Y-1.1978
G01 X0.7410 Y-1.1978
G01 X0.7539 Y-1.2032
G01 X0.7574 Y-1.2062
G01 X0.7609 Y-1.2074
G01 X0.7902 Y-1.2075
G01 X0.7940 Y-1.2067
G01 X0.7980 Y-1.2035
G01 X0.7996 Y-1.1992
G01 X0.7994 Y-1.1956
G01 X0.7966 Y-1.1885
G01 X0.7966 Y-1.1814
G01 X0.7972 Y-1.1807
G01 X0.8084 Y-1.1807
G01 X0.8106 Y-1.1846
G01 X0.8136 Y-1.1874
G01 X0.8173 Y-1.1893
G01 X0.8216 Y-1.1899
G01 X0.8592 Y-1.1898
G01 X0.8632 Y-1.1888
G01 X0.8663 Y-1.1869
G01 X0.8692 Y-1.1838
G01 X0.8708 Y-1.1807
G01 X0.8987 Y-1.1807
G01 X0.9028 Y-1.1859
G01 X0.9086 Y-1.1887
G01 X0.9327 Y-1.1890
G01 X0.9426 Y-1.1987
G01 X0.9464 Y-1.2008
G01 X0.9500 Y-1.2017
G01 X1.0987 Y-1.2017
G01 X1.1025 Y-1.2025
G01 X1.1109 Y-1.2081
G01 X1.1284 Y-1.2256
G01 X1.1351 Y-1.2348
G01 X1.1394 Y-1.2367
G01 X1.1444 Y-1.2362
G01 X1.1455 Y-1.2374
G01 X1.1455 Y-1.2478
G01 X1.1437 Y-1.2514
G01 X1.1437 Y-1.3105
G01 X1.1455 Y-1.3141
G01 X1.1455 Y-1.3253
G01 X1.1449 Y-1.3259
G01 X1.1376 Y-1.3229
G01 X1.1335 Y-1.3225
G01 X1.1279 Y-1.3251
G01 X1.1144 Y-1.3269
G01 X1.1100 Y-1.3297
G01 X1.1084 Y-1.3324
G01 X1.1077 Y-1.3358
G01 X1.1099 Y-1.3479
G01 X1.1094 Y-1.3641
G01 X1.1103 Y-1.3680
G01 X1.1142 Y-1.3723
G01 X1.1194 Y-1.3736
G01 X1.1235 Y-1.3724
G01 X1.1308 Y-1.3676
G01 X1.1414 Y-1.3655
G01 X1.1588 Y-1.3655
G01 X1.1694 Y-1.3676
G01 X1.1799 Y-1.3745
G01 X1.1846 Y-1.3758
G01 X1.1898 Y-1.3742
G01 X1.1959 Y-1.3683
G01 X1.2016 Y-1.3659
G01 X1.2034 Y-1.3659
G01 X1.2094 Y-1.3719
G01 X1.2094 Y-1.3778
G01 X1.2036 Y-1.3819
G01 X1.2004 Y-1.3885
G01 X1.2003 Y-1.4281
G01 X1.2027 Y-1.4349
G01 X1.2079 Y-1.4395
G01 X1.2141 Y-1.4411
G01 X1.2337 Y-1.4411
G01 X1.2378 Y-1.4404
G01 X1.2423 Y-1.4380
G01 X1.2458 Y-1.4338
G01 X1.2474 Y-1.4295
G01 X1.2476 Y-1.4235
G01 X1.2579 Y-1.4235
G01 X1.2586 Y-1.4242
G01 X1.2586 Y-1.4396
G01 X1.2558 Y-1.4467
G01 X1.2556 Y-1.4505
G01 X1.2583 Y-1.4557
G01 X1.2610 Y-1.4576
G01 X1.2642 Y-1.4585
G01 X1.5885 Y-1.4585
G01 X1.5921 Y-1.4577
G01 X1.5949 Y-1.4557
G01 X1.8674 Y-1.1832
G01 X1.8696 Y-1.1799
G01 X1.8702 Y-1.1757
G01 X1.8689 Y-1.1717
G01 X1.8665 Y-1.1689
G01 X1.8607 Y-1.1670
G01 X1.0337 Y-1.1675
G01 X1.0237 Y-1.1655
G01 X1.0153 Y-1.1599
G01 X0.9917 Y-1.1362
G01 X0.9863 Y-1.1286
G01 X0.9833 Y-1.1266
G01 X0.9796 Y-1.1259
G01 X0.9741 Y-1.1277
G01 X0.9706 Y-1.1325
G01 X0.9704 Y-1.1372
G01 X0.9726 Y-1.1430
G01 X0.9726 Y-1.1501
G01 X0.9719 Y-1.1508
G01 X0.9607 Y-1.1508
G01 X0.9566 Y-1.1450
G01 X0.9500 Y-1.1419
G01 X0.9115 Y-1.1416
G01 X0.9072 Y-1.1423
G01 X0.9036 Y-1.1441
G01 X0.9005 Y-1.1470
G01 X0.8983 Y-1.1508
G01 X0.8708 Y-1.1517
G01 X0.8692 Y-1.1487
G01 X0.8663 Y-1.1456
G01 X0.8632 Y-1.1437
G01 X0.8592 Y-1.1426
G01 X0.8216 Y-1.1425
G01 X0.8173 Y-1.1432
G01 X0.8137 Y-1.1450
G01 X0.8106 Y-1.1479
G01 X0.8084 Y-1.1517
G01 X0.7972 Y-1.1517
G01 X0.7966 Y-1.1511
G01 X0.7966 Y-1.1440
G01 X0.7989 Y-1.1383
G01 X0.8050 Y-1.1317
G01 X0.8064 Y-1.1269
G01 X0.8052 Y-1.1222
G01 X0.7982 Y-1.1117
G01 X0.7961 Y-1.1011
G01 X0.7961 Y-1.0838
G01 X0.7982 Y-1.0731
G01 X0.8037 Y-1.0649
G01 X0.8100 Y-1.0600
G01 X0.8120 Y-1.0545
G01 X0.8103 Y-1.0488
G01 X0.8036 Y-1.0435
G01 X0.7981 Y-1.0352
G01 X0.7960 Y-1.0246
G01 X0.7960 Y-1.0072
G01 X0.7981 Y-0.9966
G01 X0.8036 Y-0.9884
G01 X0.8083 Y-0.9844
G01 X0.8099 Y-0.9804
G01 X0.8098 Y-0.9771
G01 X0.8086 Y-0.9741
G01 X0.8029 Y-0.9692
G01 X0.7976 Y-0.9676
G01 X0.4721 Y-0.9681
G01 X0.4621 Y-0.9661
G01 X0.4537 Y-0.9605
G01 X0.3445 Y-0.8506
G01 X0.3412 Y-0.8484
G01 X0.3375 Y-0.8478
G01 X0.3339 Y-0.8486
G01 X0.3311 Y-0.8506
G01 X0.2295 Y-0.9521
G01 X0.2272 Y-0.9552
G01 X0.2175 Y-0.9617
G01 X0.2073 Y-0.9638
G01 X0.2041 Y-0.9654
G01 X0.2015 Y-0.9684
G01 X0.2001 Y-0.9735
G01 X0.1966 Y-0.9786
G01 X0.1879 Y-0.9836
G01 X0.1854 Y-0.9863
G01 X0.1840 Y-0.9903
G01 X0.1844 Y-0.9944
G01 X0.1981 Y-1.0149
G01 X0.2019 Y-1.0340
G01 X0.1981 Y-1.0531
G01 X0.1873 Y-1.0693
G01 X0.1839 Y-1.0719
G01 X0.1819 Y-1.0755
G01 X0.1815 Y-1.0905
G01 X0.1833 Y-1.0953
G01 X0.1907 Y-1.1027
G01 X0.1961 Y-1.1046
G01 X0.4252 Y-1.1046
G01 X0.4290 Y-1.1040
G01 X0.4405 Y-1.1063
G01 X0.4502 Y-1.1128
G01 X0.4525 Y-1.1159
G01 X0.5398 Y-1.2025
G01 X0.5441 Y-1.2036
G01 X0.5812 Y-1.2035
G01 X0.5960 Y-1.1978
G01 X0.6100 Y-1.1978
G01 X0.6229 Y-1.2032
G01 X0.6328 Y-1.2131
G01 X0.6382 Y-1.2260
G01 X0.6382 Y-1.2400
G01 X0.6328 Y-1.2529
G01 X0.6229 Y-1.2628
G01 X0.6100 Y-1.2682
G01 X0.5960 Y-1.2682
G01 X0.5812 Y-1.2625
G01 X0.5318 Y-1.2624
G01 X0.5280 Y-1.2630
G01 X0.5165 Y-1.2607
G01 X0.5068 Y-1.2542
G01 X0.5045 Y-1.2511
G01 X0.4194 Y-1.1660
G01 X0.4168 Y-1.1643
G01 X0.4131 Y-1.1634
G01 X0.1940 Y-1.1637
G01 X0.1907 Y-1.1653
G01 X0.1873 Y-1.1693
G01 X0.1748 Y-1.1779
G01 X0.1726 Y-1.1814
G01 X0.1721 Y-1.1855
G01 X0.1730 Y-1.1886
G01 X0.1748 Y-1.1912
G01 X0.1809 Y-1.1947
G01 X0.1939 Y-1.2090
G01 X0.1982 Y-1.2195
G01 X0.1870 Y-1.2195
G01 X0.1840 Y-1.2136
G01 X0.1790 Y-1.2073
G01 X0.1755 Y-1.2042
G01 X0.1683 Y-1.1997
G01 X0.1565 Y-1.1963
G01 X0.1475 Y-1.1963
G01 X0.1397 Y-1.1981
G01 X0.1353 Y-1.1999
G01 X0.1285 Y-1.2042
G01 X0.1250 Y-1.2073
G01 X0.1177 Y-1.2177
G01 X0.1151 Y-1.2253
G01 X0.1143 Y-1.2300
G00 Z0.1000
G00 X0.1704 Y-1.2671
G01 F3.00
G01 Z-0.0020
G01 F3.00
G01 X0.1704 Y-1.2782
G01 X0.1809 Y-1.2733
G01 X0.1939 Y-1.2590
G01 X0.1982 Y-1.2485
G01 X0.1870 Y-1.2485
G01 X0.1815 Y-1.2579
G01 X0.1759 Y-1.2635
G01 X0.1704 Y-1.2671
G00 Z0.1000
G00 X0.0705 Y-1.5066
G01 F3.00
G01 Z-0.0020
G01 F3.00
G01 X0.0722 Y-1.5142
G01 X0.0758 Y-1.5194
G01 X0.1820 Y-1.6255
G01 X0.1872 Y-1.6292
G01 X0.1932 Y-1.6308
G01 X2.0849 Y-1.6309
G01 X2.1316 Y-1.6776
G01 X2.1316 Y-1.9071
G01 X2.1335 Y-1.9153
G01 X2.1370 Y-1.9202
G01 X2.3298 Y-2.1130
G01 X2.3366 Y-2.1173
G01 X2.3429 Y-2.1184
G01 X3.2114 Y-2.1184
G01 X3.2190 Y-2.1222
G01 X3.2300 Y-2.1240
G01 X3.2410 Y-2.1222
G01 X3.2486 Y-2.1184
G01 X3.9485 Y-2.1184
G01 X3.9529 Y-2.1179
G01 X3.9581 Y-2.1157
G01 X3.9616 Y-2.1130
G01 X4.2944 Y-1.7796
G01 X4.2964 Y-1.7755
G01 X4.2974 Y-1.7696
G01 X4.2974 Y-1.6225
G01 X4.3054 Y-1.6153
G01 X4.3095 Y-1.6089
G01 X4.3121 Y-1.6014
G01 X4.3130 Y-1.5939
G01 X4.3111 Y-1.5829
G01 X4.3057 Y-1.5729
G01 X4.3000 Y-1.5672
G01 X4.2899 Y-1.5617
G01 X4.2789 Y-1.5599
G01 X4.2679 Y-1.5617
G01 X4.2579 Y-1.5672
G01 X4.2522 Y-1.5729
G01 X4.2467 Y-1.5829
G01 X4.2449 Y-1.5942
G01 X4.2458 Y-1.6018
G01 X4.2484 Y-1.6089
G01 X4.2525 Y-1.6153
G01 X4.2605 Y-1.6225
G01 X4.2605 Y-1.7620
G01 X3.9409 Y-2.0816
G01 X3.2629 Y-2.0816
G01 X3.2587 Y-2.0717
G01 X3.2510 Y-2.0632
G01 X3.2410 Y-2.0578
G01 X3.2300 Y-2.0560
G01 X3.2190 Y-2.0578
G01 X3.2090 Y-2.0632
G01 X3.2013 Y-2.0717
G01 X3.1971 Y-2.0816
G01 X2.3505 Y-2.0816
G01 X2.1684 Y-1.8995
G01 X2.1684 Y-1.6700
G01 X2.1679 Y-1.6657
G01 X2.1657 Y-1.6604
G01 X2.1632 Y-1.6571
G01 X2.1055 Y-1.5995
G01 X2.1007 Y-1.5960
G01 X2.0948 Y-1.5942
G01 X0.2026 Y-1.5941
G01 X0.1073 Y-1.4988
G01 X0.1073 Y-0.9937
G01 X0.1291 Y-0.9720
G01 X0.1855 Y-0.9720
G01 X0.1878 Y-0.9713
G01 X0.1899 Y-0.9680
G01 X0.1900 Y-0.9524
G01 X0.2083 Y-0.9523
G01 X0.2138 Y-0.9507
G01 X0.2177 Y-0.9483
G01 X0.3378 Y-0.8283
G01 X0.4618 Y-0.9523
G01 X0.4656 Y-0.9550
G01 X0.4690 Y-0.9563
G01 X0.8083 Y-0.9566
G01 X0.8124 Y-0.9624
G01 X0.8190 Y-0.9656
G01 X0.8575 Y-0.9658
G01 X0.8627 Y-0.9648
G01 X0.8666 Y-0.9624
G01 X0.8698 Y-0.9585
G01 X0.8713 Y-0.9542
G01 X0.8716 Y-0.9325
G01 X0.8709 Y-0.9282
G01 X0.8691 Y-0.9245
G01 X0.8662 Y-0.9215
G01 X0.8627 Y-0.9194
G01 X0.8586 Y-0.9184
G01 X0.8190 Y-0.9186
G01 X0.8124 Y-0.9217
G01 X0.8083 Y-0.9276
G01 X0.4781 Y-0.9276
G01 X0.3534 Y-0.8029
G01 X0.3534 Y-0.7480
G01 X0.3695 Y-0.7479
G01 X0.3716 Y-0.7466
G01 X0.3729 Y-0.7440
G01 X0.3729 Y-0.6760
G01 X0.3716 Y-0.6734
G01 X0.3685 Y-0.6720
G01 X0.3015 Y-0.6720
G01 X0.2992 Y-0.6727
G01 X0.2975 Y-0.6746
G01 X0.2971 Y-0.7440
G01 X0.2984 Y-0.7466
G01 X0.3005 Y-0.7479
G01 X0.3166 Y-0.7480
G01 X0.3166 Y-0.7974
G01 X0.1984 Y-0.9156
G01 X0.1900 Y-0.9156
G01 X0.1899 Y-0.8995
G01 X0.1886 Y-0.8974
G01 X0.1865 Y-0.8961
G01 X0.1185 Y-0.8960
G01 X0.1157 Y-0.8970
G01 X0.1140 Y-0.9005
G01 X0.1140 Y-0.9349
G01 X0.0801 Y-0.9688
G01 X0.0757 Y-0.9721
G01 X0.0716 Y-0.9787
G01 X0.0704 Y-0.9850
G01 X0.0705 Y-1.5066
G00 Z0.1000
G00 X0.2970 Y-1.5151
G01 F3.00
G01 Z-0.0020
G01 F3.00
G01 X0.2970 Y-1.5000
G01 X0.2980 Y-1.4972
G01 X0.3010 Y-1.4956
G01 X0.3205 Y-1.4955
G01 X0.3205 Y-1.4852
G01 X0.3198 Y-1.4845
G01 X0.2985 Y-1.4845
G01 X0.2928 Y-1.4869
G01 X0.2884 Y-1.4913
G01 X0.2860 Y-1.4970
G01 X0.2860 Y-1.5151
G01 X0.2970 Y-1.5151
G00 Z0.1000
G00 X0.3495 Y-1.4955
G01 F3.00
G01 Z-0.0020
G01 F3.00
G01 X0.3685 Y-1.4955
G01 X0.3708 Y-1.4962
G01 X0.3729 Y-1.4995
G01 X0.3730 Y-1.5151
G01 X0.3840 Y-1.5151
G01 X0.3840 Y-1.4970
G01 X0.3816 Y-1.4913
G01 X0.3772 Y-1.4869
G01 X0.3715 Y-1.4845
G01 X0.3502 Y-1.4845
G01 X0.3495 Y-1.4852
G01 X0.3495 Y-1.4955
G00 Z0.1000
G00 X0.7100 Y-1.2305
G01 F3.00
G01 Z-0.0020
G01 F3.00
G01 X0.7099 Y-1.2355
G01 X0.7111 Y-1.2407
G01 X0.7153 Y-1.2483
G01 X0.7187 Y-1.2517
G01 X0.7233 Y-1.2547
G01 X0.7315 Y-1.2571
G01 X0.7370 Y-1.2570
G01 X0.7443 Y-1.2549
G01 X0.7493 Y-1.2517
G01 X0.7533 Y-1.2475
G01 X0.8071 Y-1.2475
G01 X0.8112 Y-1.2533
G01 X0.8178 Y-1.2565
G01 X0.8574 Y-1.2566
G01 X0.8618 Y-1.2555
G01 X0.8663 Y-1.2524
G01 X0.8692 Y-1.2482
G01 X0.8703 Y-1.2438
G01 X0.8703 Y-1.2232
G01 X0.8693 Y-1.2182
G01 X0.8673 Y-1.2146
G01 X0.8642 Y-1.2118
G01 X0.8574 Y-1.2094
G01 X0.8178 Y-1.2095
G01 X0.8112 Y-1.2126
G01 X0.8071 Y-1.2185
G01 X0.7533 Y-1.2185
G01 X0.7493 Y-1.2143
G01 X0.7443 Y-1.2111
G01 X0.7370 Y-1.2090
G01 X0.7310 Y-1.2090
G01 X0.7233 Y-1.2113
G01 X0.7167 Y-1.2161
G01 X0.7121 Y-1.2227
G01 X0.7100 Y-1.2305
G00 Z0.1000
G00 X0.8063 Y-1.3563
G01 F3.00
G01 Z-0.0020
G01 F3.00
G01 X0.8065 Y-1.3797
G01 X0.8093 Y-1.3855
G01 X0.8139 Y-1.3892
G01 X0.8201 Y-1.3908
G01 X0.8564 Y-1.3908
G01 X0.8614 Y-1.3898
G01 X0.8650 Y-1.3877
G01 X0.8681 Y-1.3843
G01 X0.8701 Y-1.3792
G01 X0.8700 Y-1.3545
G01 X0.8678 Y-1.3495
G01 X0.8639 Y-1.3457
G01 X0.8592 Y-1.3437
G01 X0.8528 Y-1.3434
G01 X0.8528 Y-1.3305
G01 X0.8588 Y-1.3303
G01 X0.8627 Y-1.3289
G01 X0.8670 Y-1.3255
G01 X0.8694 Y-1.3213
G01 X0.8743 Y-1.3206
G01 X0.8790 Y-1.3180
G01 X0.9561 Y-1.2410
G01 X1.0865 Y-1.2410
G01 X1.0945 Y-1.2489
G01 X1.0937 Y-1.2514
G01 X1.0942 Y-1.3124
G01 X1.0954 Y-1.3140
G01 X1.0977 Y-1.3149
G01 X1.1233 Y-1.3147
G01 X1.1254 Y-1.3133
G01 X1.1264 Y-1.3105
G01 X1.1264 Y-1.2514
G01 X1.1246 Y-1.2478
G01 X1.1236 Y-1.2390
G01 X1.1205 Y-1.2339
G01 X1.1026 Y-1.2161
G01 X1.0986 Y-1.2133
G01 X1.0944 Y-1.2121
G01 X0.9501 Y-1.2120
G01 X0.9450 Y-1.2129
G01 X0.9398 Y-1.2162
G01 X0.8674 Y-1.2887
G01 X0.8627 Y-1.2847
G01 X0.8562 Y-1.2831
G01 X0.8191 Y-1.2832
G01 X0.8147 Y-1.2843
G01 X0.8102 Y-1.2874
G01 X0.8074 Y-1.2916
G01 X0.8063 Y-1.2956
G01 X0.8065 Y-1.3194
G01 X0.8087 Y-1.3244
G01 X0.8127 Y-1.3283
G01 X0.8173 Y-1.3302
G01 X0.8238 Y-1.3305
G01 X0.8238 Y-1.3434
G01 X0.8173 Y-1.3437
G01 X0.8123 Y-1.3459
G01 X0.8080 Y-1.3507
G01 X0.8063 Y-1.3563
G00 Z0.1000
G00 X0.8071 Y-1.4554
G01 F3.00
G01 Z-0.0020
G01 F3.00
G01 X0.7959 Y-1.4554
G01 X0.7952 Y-1.4561
G01 X0.7952 Y-1.4632
G01 X0.7976 Y-1.4689
G01 X0.8019 Y-1.4732
G01 X0.8076 Y-1.4756
G01 X0.8231 Y-1.4756
G01 X0.8238 Y-1.4749
G01 X0.8238 Y-1.4646
G01 X0.8178 Y-1.4644
G01 X0.8135 Y-1.4628
G01 X0.8095 Y-1.4596
G01 X0.8071 Y-1.4554
G00 Z0.1000
G00 X0.8588 Y-1.4644
G01 F3.00
G01 Z-0.0020
G01 F3.00
G01 X0.8528 Y-1.4646
G01 X0.8528 Y-1.4749
G01 X0.8534 Y-1.4756
G01 X0.8689 Y-1.4756
G01 X0.8746 Y-1.4732
G01 X0.8790 Y-1.4689
G01 X0.8813 Y-1.4632
G01 X0.8813 Y-1.4561
G01 X0.8806 Y-1.4554
G01 X0.8694 Y-1.4554
G01 X0.8653 Y-1.4613
G01 X0.8588 Y-1.4644
G00 Z0.1000
G00 X0.9864 Y-1.3910
G01 F3.00
G01 Z-0.0020
G01 F3.00
G01 X0.9864 Y-1.4272
G01 X0.9882 Y-1.4338
G01 X0.9914 Y-1.4377
G01 X0.9956 Y-1.4402
G01 X0.9963 Y-1.4466
G01 X0.9997 Y-1.4522
G01 X1.0419 Y-1.4944
G01 X1.0455 Y-1.4970
G01 X1.0490 Y-1.4982
G01 X1.6027 Y-1.4985
G01 X1.6088 Y-1.4972
G01 X1.6130 Y-1.4943
G01 X2.3568 Y-0.7505
G01 X2.4383 Y-0.7505
G01 X2.6726 Y-0.9848
G01 X2.6704 Y-0.9913
G01 X2.6695 Y-0.9995
G01 X2.6695 Y-1.0205
G01 X2.6704 Y-1.0286
G01 X2.6732 Y-1.0368
G01 X2.6777 Y-1.0441
G01 X2.6838 Y-1.0502
G01 X2.6877 Y-1.0530
G01 X2.6996 Y-1.0579
G01 X2.7077 Y-1.0588
G01 X2.7126 Y-1.0585
G01 X2.7205 Y-1.0567
G01 X2.7249 Y-1.0549
G01 X2.7318 Y-1.0505
G01 X2.7354 Y-1.0473
G01 X2.7426 Y-1.0372
G01 X2.7456 Y-1.0287
G01 X2.7465 Y-1.0203
G01 X2.7465 Y-0.9995
G01 X2.7456 Y-0.9914
G01 X2.7428 Y-0.9832
G01 X2.7383 Y-0.9759
G01 X2.7322 Y-0.9698
G01 X2.7249 Y-0.9651
G01 X2.7164 Y-0.9621
G01 X2.7080 Y-0.9612
G01 X2.6997 Y-0.9621
G01 X2.6931 Y-0.9643
G01 X2.4522 Y-0.7238
G01 X2.4488 Y-0.7222
G01 X2.4443 Y-0.7215
G01 X2.3478 Y-0.7218
G01 X2.3442 Y-0.7230
G01 X2.3405 Y-0.7257
G01 X1.5967 Y-1.4695
G01 X1.0580 Y-1.4695
G01 X1.0273 Y-1.4388
G01 X1.0315 Y-1.4346
G01 X1.0337 Y-1.4286
G01 X1.0338 Y-1.3908
G01 X1.0331 Y-1.3867
G01 X1.0313 Y-1.3831
G01 X1.0285 Y-1.3800
G01 X1.0246 Y-1.3778
G01 X1.0246 Y-1.3141
G01 X1.0264 Y-1.3105
G01 X1.0264 Y-1.2514
G01 X1.0250 Y-1.2482
G01 X1.0224 Y-1.2469
G01 X0.9977 Y-1.2469
G01 X0.9951 Y-1.2482
G01 X0.9938 Y-1.2504
G01 X0.9937 Y-1.3105
G01 X0.9955 Y-1.3141
G01 X0.9955 Y-1.3778
G01 X0.9917 Y-1.3800
G01 X0.9889 Y-1.3830
G01 X0.9871 Y-1.3867
G01 X0.9864 Y-1.3910
G00 Z0.1000
G00 X1.0455 Y-1.3141
G01 F3.00
G01 Z-0.0020
G01 F3.00
G01 X1.0457 Y-1.3259
G01 X1.0476 Y-1.3315
G01 X1.0694 Y-1.3539
G01 X1.0694 Y-1.3778
G01 X1.0663 Y-1.3794
G01 X1.0633 Y-1.3823
G01 X1.0612 Y-1.3858
G01 X1.0603 Y-1.3899
G01 X1.0603 Y-1.4281
G01 X1.0614 Y-1.4326
G01 X1.0645 Y-1.4371
G01 X1.0687 Y-1.4399
G01 X1.0727 Y-1.4410
G01 X1.0935 Y-1.4411
G01 X1.0978 Y-1.4404
G01 X1.1023 Y-1.4380
G01 X1.1058 Y-1.4338
G01 X1.1074 Y-1.4295
G01 X1.1076 Y-1.4235
G01 X1.1264 Y-1.4235
G01 X1.1267 Y-1.4299
G01 X1.1287 Y-1.4346
G01 X1.1325 Y-1.4386
G01 X1.1375 Y-1.4407
G01 X1.1613 Y-1.4410
G01 X1.1661 Y-1.4395
G01 X1.1698 Y-1.4368
G01 X1.1726 Y-1.4326
G01 X1.1737 Y-1.4281
G01 X1.1738 Y-1.3910
G01 X1.1726 Y-1.3854
G01 X1.1688 Y-1.3803
G01 X1.1653 Y-1.3781
G01 X1.1608 Y-1.3770
G01 X1.1375 Y-1.3773
G01 X1.1325 Y-1.3794
G01 X1.1287 Y-1.3834
G01 X1.1267 Y-1.3881
G01 X1.1264 Y-1.3945
G01 X1.1076 Y-1.3945
G01 X1.1074 Y-1.3885
G01 X1.1058 Y-1.3842
G01 X1.1026 Y-1.3803
G01 X1.0984 Y-1.3778
G01 X1.0984 Y-1.3479
G01 X1.0975 Y-1.3428
G01 X1.0943 Y-1.3378
G01 X1.0746 Y-1.3180
G01 X1.0746 Y-1.3141
G01 X1.0764 Y-1.3105
G01 X1.0764 Y-1.2514
G01 X1.0757 Y-1.2490
G01 X1.0738 Y-1.2473
G01 X1.0477 Y-1.2469
G01 X1.0454 Y-1.2479
G01 X1.0442 Y-1.2495
G01 X1.0437 Y-1.3105
G01 X1.0455 Y-1.3141
G00 Z0.1000
G00 X1.1746 Y-1.3141
G01 F3.00
G01 Z-0.0020
G01 F3.00
G01 X1.1746 Y-1.3244
G01 X1.1757 Y-1.3256
G01 X1.1825 Y-1.3229
G01 X1.1856 Y-1.3224
G01 X1.1890 Y-1.3232
G01 X1.1922 Y-1.3251
G01 X1.1992 Y-1.3264
G01 X1.2209 Y-1.3264
G01 X1.2279 Y-1.3251
G01 X1.2313 Y-1.3230
G01 X1.2348 Y-1.3222
G01 X1.2383 Y-1.3228
G01 X1.2422 Y-1.3251
G01 X1.2492 Y-1.3264
G01 X1.2709 Y-1.3264
G01 X1.2779 Y-1.3251
G01 X1.2813 Y-1.3230
G01 X1.2848 Y-1.3222
G01 X1.2883 Y-1.3228
G01 X1.2922 Y-1.3251
G01 X1.2992 Y-1.3264
G01 X1.3209 Y-1.3264
G01 X1.3279 Y-1.3251
G01 X1.3330 Y-1.3216
G01 X1.3365 Y-1.3165
G01 X1.3378 Y-1.3095
G01 X1.3378 Y-1.2523
G01 X1.3365 Y-1.2454
G01 X1.3330 Y-1.2402
G01 X1.3279 Y-1.2368
G01 X1.3209 Y-1.2354
G01 X1.2992 Y-1.2354
G01 X1.2922 Y-1.2368
G01 X1.2887 Y-1.2389
G01 X1.2853 Y-1.2396
G01 X1.2818 Y-1.2391
G01 X1.2779 Y-1.2368
G01 X1.2709 Y-1.2354
G01 X1.2492 Y-1.2354
G01 X1.2422 Y-1.2368
G01 X1.2387 Y-1.2389
G01 X1.2353 Y-1.2396
G01 X1.2318 Y-1.2391
G01 X1.2279 Y-1.2368
G01 X1.2209 Y-1.2354
G01 X1.1992 Y-1.2354
G01 X1.1922 Y-1.2368
G01 X1.1890 Y-1.2387
G01 X1.1856 Y-1.2394
G01 X1.1825 Y-1.2390
G01 X1.1751 Y-1.2360
G01 X1.1746 Y-1.2366
G01 X1.1746 Y-1.2478
G01 X1.1764 Y-1.2514
G01 X1.1764 Y-1.3105
G01 X1.1746 Y-1.3141
G00 Z0.1000
G00 X1.1963 Y-1.3145
G01 F3.00
G01 Z-0.0020
G01 F3.00
G01 X1.2224 Y-1.3149
G01 X1.2247 Y-1.3140
G01 X1.2261 Y-1.3119
G01 X1.2264 Y-1.2514
G01 X1.2254 Y-1.2486
G01 X1.2233 Y-1.2471
G01 X1.1977 Y-1.2469
G01 X1.1954 Y-1.2479
G01 X1.1940 Y-1.2499
G01 X1.1937 Y-1.3105
G01 X1.1944 Y-1.3128
G01 X1.1963 Y-1.3145
G00 Z0.1000
G00 X1.2384 Y-1.3778
G01 F3.00
G01 Z-0.0020
G01 F3.00
G01 X1.2426 Y-1.3803
G01 X1.2458 Y-1.3842
G01 X1.2474 Y-1.3885
G01 X1.2476 Y-1.3945
G01 X1.2579 Y-1.3945
G01 X1.2586 Y-1.3938
G01 X1.2586 Y-1.3784
G01 X1.2562 Y-1.3727
G01 X1.2519 Y-1.3683
G01 X1.2462 Y-1.3659
G01 X1.2391 Y-1.3659
G01 X1.2384 Y-1.3666
G01 X1.2384 Y-1.3778
G00 Z0.1000
G00 X1.2963 Y-1.3145
G01 F3.00
G01 Z-0.0020
G01 F3.00
G01 X1.3224 Y-1.3149
G01 X1.3247 Y-1.3140
G01 X1.3261 Y-1.3119
G01 X1.3264 Y-1.2514
G01 X1.3254 Y-1.2486
G01 X1.3233 Y-1.2471
G01 X1.2977 Y-1.2469
G01 X1.2954 Y-1.2479
G01 X1.2940 Y-1.2499
G01 X1.2937 Y-1.3105
G01 X1.2944 Y-1.3128
G01 X1.2963 Y-1.3145
G00 Z0.1000
G00 X1.2437 Y-1.2514
G01 F3.00
G01 Z-0.0020
G01 F3.00
G01 X1.2442 Y-1.3124
G01 X1.2454 Y-1.3140
G01 X1.2477 Y-1.3149
G01 X1.2738 Y-1.3145
G01 X1.2757 Y-1.3128
G01 X1.2764 Y-1.3105
G01 X1.2759 Y-1.2495
G01 X1.2747 Y-1.2479
G01 X1.2724 Y-1.2469
G01 X1.2477 Y-1.2469
G01 X1.2451 Y-1.2482
G01 X1.2437 Y-1.2514
G00 Z0.1000
G00 X1.2463 Y-1.1019
G01 F3.00
G01 Z-0.0020
G01 F3.00
G01 X1.2724 Y-1.1023
G01 X1.2747 Y-1.1014
G01 X1.2761 Y-1.0993
G01 X1.2764 Y-1.0388
G01 X1.2754 Y-1.0360
G01 X1.2733 Y-1.0345
G01 X1.2477 Y-1.0343
G01 X1.2454 Y-1.0353
G01 X1.2440 Y-1.0373
G01 X1.2437 Y-1.0979
G01 X1.2444 Y-1.1002
G01 X1.2463 Y-1.1019
G00 Z0.1000
G00 X1.1963 Y-1.1019
G01 F3.00
G01 Z-0.0020
G01 F3.00
G01 X1.2224 Y-1.1023
G01 X1.2247 Y-1.1014
G01 X1.2261 Y-1.0993
G01 X1.2264 Y-1.0388
G01 X1.2254 Y-1.0360
G01 X1.2233 Y-1.0345
G01 X1.1977 Y-1.0343
G01 X1.1954 Y-1.0353
G01 X1.1940 Y-1.0373
G01 X1.1937 Y-1.0979
G01 X1.1944 Y-1.1002
G01 X1.1963 Y-1.1019
G00 Z0.1000
G00 X1.1455 Y-1.0352
G01 F3.00
G01 Z-0.0020
G01 F3.00
G01 X1.1437 Y-1.0388
G01 X1.1442 Y-1.0998
G01 X1.1454 Y-1.1014
G01 X1.1477 Y-1.1023
G01 X1.1738 Y-1.1019
G01 X1.1757 Y-1.1002
G01 X1.1764 Y-1.0979
G01 X1.1764 Y-1.0388
G01 X1.1746 Y-1.0352
G01 X1.1746 Y-0.9410
G01 X1.3860 Y-0.7295
G01 X2.0274 Y-0.7295
G01 X2.0274 Y-0.7490
G01 X2.0284 Y-0.7513
G01 X2.0305 Y-0.7527
G01 X2.0993 Y-0.7529
G01 X2.1020 Y-0.7516
G01 X2.1032 Y-0.7495
G01 X2.1033 Y-0.7295
G01 X2.2200 Y-0.7295
G01 X2.2265 Y-0.7280
G01 X2.2303 Y-0.7253
G01 X2.3045 Y-0.6510
G01 X2.4665 Y-0.6510
G01 X2.4730 Y-0.6495
G01 X2.4767 Y-0.6468
G01 X2.5184 Y-0.6051
G01 X2.5212 Y-0.6011
G01 X2.5224 Y-0.5969
G01 X2.5225 Y-0.4559
G01 X2.5322 Y-0.4502
G01 X2.5405 Y-0.4410
G01 X2.5444 Y-0.4328
G01 X2.5465 Y-0.4203
G01 X2.5463 Y-0.3956
G01 X2.5444 Y-0.3872
G01 X2.5405 Y-0.3791
G01 X2.5354 Y-0.3727
G01 X2.5287 Y-0.3673
G01 X2.5225 Y-0.3641
G01 X2.5225 Y-0.3438
G01 X2.6243 Y-0.2420
G01 X3.6687 Y-0.2420
G01 X3.6738 Y-0.2411
G01 X3.6780 Y-0.2387
G01 X3.7172 Y-0.1995
G01 X4.3240 Y-0.1995
G01 X4.4025 Y-0.2780
G01 X4.4025 Y-0.5215
G01 X4.4034 Y-0.5265
G01 X4.4067 Y-0.5317
G01 X4.4974 Y-0.6224
G01 X4.5025 Y-0.6256
G01 X4.5075 Y-0.6265
G01 X4.8010 Y-0.6265
G01 X4.8635 Y-0.6890
G01 X4.8635 Y-1.1860
G01 X4.8240 Y-1.2255
G01 X4.7800 Y-1.2255
G01 X4.7748 Y-1.2165
G01 X4.7685 Y-1.2102
G01 X4.7578 Y-1.2043
G01 X4.7495 Y-1.2023
G01 X4.7447 Y-1.2020
G01 X4.7363 Y-1.2031
G01 X4.7288 Y-1.2057
G01 X4.7215 Y-1.2102
G01 X4.7152 Y-1.2165
G01 X4.7093 Y-1.2272
G01 X4.7073 Y-1.2360
G01 X4.7079 Y-1.2482
G01 X4.7109 Y-1.2567
G01 X4.7180 Y-1.2667
G01 X4.7250 Y-1.2723
G01 X4.7367 Y-1.2770
G01 X4.7447 Y-1.2780
G01 X4.7495 Y-1.2777
G01 X4.7573 Y-1.2759
G01 X4.7617 Y-1.2741
G01 X4.7685 Y-1.2698
G01 X4.7720 Y-1.2667
G01 X4.7770 Y-1.2604
G01 X4.7800 Y-1.2545
G01 X4.8300 Y-1.2545
G01 X4.8365 Y-1.2530
G01 X4.8403 Y-1.2503
G01 X4.8883 Y-1.2023
G01 X4.8904 Y-1.1995
G01 X4.8921 Y-1.1955
G01 X4.8924 Y-0.6816
G01 X4.8912 Y-0.6769
G01 X4.8883 Y-0.6727
G01 X4.8173 Y-0.6017
G01 X4.8135 Y-0.5990
G01 X4.8101 Y-0.5978
G01 X4.5135 Y-0.5975
G01 X4.4315 Y-0.5155
G01 X4.4315 Y-0.2720
G01 X4.4302 Y-0.2659
G01 X4.4273 Y-0.2617
G01 X4.3403 Y-0.1747
G01 X4.3346 Y-0.1712
G01 X4.3300 Y-0.1705
G01 X3.7099 Y-0.1706
G01 X3.7052 Y-0.1718
G01 X3.7012 Y-0.1746
G01 X3.6627 Y-0.2130
G01 X3.6175 Y-0.2130
G01 X3.6228 Y-0.2097
G01 X3.6278 Y-0.2041
G01 X3.6304 Y-0.1987
G01 X3.6317 Y-0.1913
G01 X3.6311 Y-0.1859
G01 X3.6292 Y-0.1803
G01 X3.6262 Y-0.1757
G01 X3.6220 Y-0.1717
G01 X3.6220 Y-0.1250
G01 X3.6314 Y-0.1195
G01 X3.6370 Y-0.1139
G01 X3.6398 Y-0.1100
G01 X3.6445 Y-0.0983
G01 X3.6452 Y-0.0860
G01 X3.6434 Y-0.0777
G01 X3.6416 Y-0.0733
G01 X3.6373 Y-0.0665
G01 X3.6314 Y-0.0605
G01 X3.6242 Y-0.0559
G01 X3.6198 Y-0.0541
G01 X3.6120 Y-0.0523
G01 X3.6072 Y-0.0520
G01 X3.5988 Y-0.0531
G01 X3.5913 Y-0.0557
G01 X3.5871 Y-0.0580
G01 X3.5808 Y-0.0630
G01 X3.5777 Y-0.0665
G01 X3.5732 Y-0.0737
G01 X3.5706 Y-0.0813
G01 X3.5698 Y-0.0860
G01 X3.5698 Y-0.0940
G01 X3.5706 Y-0.0987
G01 X3.5752 Y-0.1100
G01 X3.5780 Y-0.1139
G01 X3.5836 Y-0.1195
G01 X3.5930 Y-0.1250
G01 X3.5930 Y-0.1717
G01 X3.5888 Y-0.1757
G01 X3.5858 Y-0.1803
G01 X3.5839 Y-0.1858
G01 X3.5833 Y-0.1913
G01 X3.5846 Y-0.1987
G01 X3.5871 Y-0.2040
G01 X3.5922 Y-0.2097
G01 X3.5975 Y-0.2130
G01 X3.5149 Y-0.2130
G01 X3.5205 Y-0.2104
G01 X3.5262 Y-0.2053
G01 X3.5302 Y-0.1982
G01 X3.5316 Y-0.1925
G01 X3.5315 Y-0.1870
G01 X3.5294 Y-0.1797
G01 X3.5262 Y-0.1747
G01 X3.5220 Y-0.1707
G01 X3.5220 Y-0.1250
G01 X3.5314 Y-0.1195
G01 X3.5395 Y-0.1104
G01 X3.5434 Y-0.1023
G01 X3.5452 Y-0.0945
G01 X3.5455 Y-0.0897
G01 X3.5444 Y-0.0813
G01 X3.5418 Y-0.0738
G01 X3.5373 Y-0.0665
G01 X3.5342 Y-0.0630
G01 X3.5279 Y-0.0580
G01 X3.5203 Y-0.0543
G01 X3.5120 Y-0.0523
G01 X3.5072 Y-0.0520
G01 X3.4988 Y-0.0531
G01 X3.4913 Y-0.0557
G01 X3.4840 Y-0.0602
G01 X3.4805 Y-0.0633
G01 X3.4755 Y-0.0696
G01 X3.4718 Y-0.0772
G01 X3.4704 Y-0.0818
G01 X3.4695 Y-0.0897
G01 X3.4706 Y-0.0987
G01 X3.4755 Y-0.1104
G01 X3.4836 Y-0.1195
G01 X3.4930 Y-0.1250
G01 X3.4930 Y-0.1707
G01 X3.4888 Y-0.1747
G01 X3.4856 Y-0.1797
G01 X3.4839 Y-0.1849
G01 X3.4834 Y-0.1925
G01 X3.4856 Y-0.2003
G01 X3.4888 Y-0.2053
G01 X3.4944 Y-0.2103
G01 X3.5001 Y-0.2130
G01 X3.3585 Y-0.2130
G01 X3.4190 Y-0.1523
G01 X3.4219 Y-0.1453
G01 X3.4220 Y-0.1280
G01 X3.4420 Y-0.1279
G01 X3.4441 Y-0.1266
G01 X3.4454 Y-0.1240
G01 X3.4455 Y-0.0565
G01 X3.4441 Y-0.0534
G01 X3.4410 Y-0.0520
G01 X3.3740 Y-0.0520
G01 X3.3709 Y-0.0534
G01 X3.3696 Y-0.0560
G01 X3.3696 Y-0.1245
G01 X3.3709 Y-0.1266
G01 X3.3735 Y-0.1279
G01 X3.3930 Y-0.1280
G01 X3.3930 Y-0.1375
G01 X3.3175 Y-0.2130
G01 X3.1219 Y-0.2130
G01 X3.1269 Y-0.2093
G01 X3.1306 Y-0.2046
G01 X3.1335 Y-0.1976
G01 X3.1342 Y-0.1923
G01 X3.1336 Y-0.1869
G01 X3.1317 Y-0.1813
G01 X3.1287 Y-0.1767
G01 X3.1245 Y-0.1727
G01 X3.1245 Y-0.1225
G01 X3.1339 Y-0.1170
G01 X3.1395 Y-0.1114
G01 X3.1423 Y-0.1075
G01 X3.1470 Y-0.0958
G01 X3.1477 Y-0.0835
G01 X3.1459 Y-0.0752
G01 X3.1441 Y-0.0708
G01 X3.1398 Y-0.0640
G01 X3.1339 Y-0.0580
G01 X3.1267 Y-0.0534
G01 X3.1223 Y-0.0516
G01 X3.1145 Y-0.0498
G01 X3.1097 Y-0.0495
G01 X3.1013 Y-0.0506
G01 X3.0938 Y-0.0532
G01 X3.0896 Y-0.0555
G01 X3.0833 Y-0.0605
G01 X3.0802 Y-0.0640
G01 X3.0757 Y-0.0712
G01 X3.0731 Y-0.0788
G01 X3.0723 Y-0.0835
G01 X3.0723 Y-0.0915
G01 X3.0731 Y-0.0962
G01 X3.0777 Y-0.1075
G01 X3.0805 Y-0.1114
G01 X3.0861 Y-0.1170
G01 X3.0955 Y-0.1225
G01 X3.0955 Y-0.1727
G01 X3.0913 Y-0.1767
G01 X3.0883 Y-0.1813
G01 X3.0864 Y-0.1868
G01 X3.0858 Y-0.1923
G01 X3.0865 Y-0.1976
G01 X3.0894 Y-0.2046
G01 X3.0931 Y-0.2093
G01 X3.0981 Y-0.2130
G01 X3.0190 Y-0.2130
G01 X3.0239 Y-0.2101
G01 X3.0281 Y-0.2059
G01 X3.0317 Y-0.1992
G01 X3.0331 Y-0.1935
G01 X3.0330 Y-0.1880
G01 X3.0317 Y-0.1828
G01 X3.0293 Y-0.1779
G01 X3.0245 Y-0.1725
G01 X3.0245 Y-0.1225
G01 X3.0339 Y-0.1170
G01 X3.0395 Y-0.1114
G01 X3.0423 Y-0.1075
G01 X3.0470 Y-0.0958
G01 X3.0477 Y-0.0835
G01 X3.0459 Y-0.0752
G01 X3.0441 Y-0.0708
G01 X3.0398 Y-0.0640
G01 X3.0339 Y-0.0580
G01 X3.0267 Y-0.0534
G01 X3.0223 Y-0.0516
G01 X3.0145 Y-0.0498
G01 X3.0097 Y-0.0495
G01 X3.0013 Y-0.0506
G01 X2.9938 Y-0.0532
G01 X2.9896 Y-0.0555
G01 X2.9833 Y-0.0605
G01 X2.9802 Y-0.0640
G01 X2.9757 Y-0.0712
G01 X2.9731 Y-0.0788
G01 X2.9723 Y-0.0835
G01 X2.9723 Y-0.0915
G01 X2.9731 Y-0.0962
G01 X2.9777 Y-0.1075
G01 X2.9805 Y-0.1114
G01 X2.9861 Y-0.1170
G01 X2.9955 Y-0.1225
G01 X2.9955 Y-0.1710
G01 X2.9903 Y-0.1757
G01 X2.9873 Y-0.1803
G01 X2.9854 Y-0.1858
G01 X2.9848 Y-0.1913
G01 X2.9861 Y-0.1987
G01 X2.9886 Y-0.2040
G01 X2.9937 Y-0.2097
G01 X2.9990 Y-0.2130
G01 X2.8585 Y-0.2130
G01 X2.9215 Y-0.1498
G01 X2.9244 Y-0.1428
G01 X2.9245 Y-0.1255
G01 X2.9445 Y-0.1254
G01 X2.9466 Y-0.1241
G01 X2.9479 Y-0.1215
G01 X2.9480 Y-0.0540
G01 X2.9466 Y-0.0509
G01 X2.9435 Y-0.0495
G01 X2.8760 Y-0.0496
G01 X2.8734 Y-0.0509
G01 X2.8720 Y-0.0540
G01 X2.8721 Y-0.1220
G01 X2.8734 Y-0.1241
G01 X2.8760 Y-0.1254
G01 X2.8955 Y-0.1255
G01 X2.8955 Y-0.1350
G01 X2.8175 Y-0.2130
G01 X2.6183 Y-0.2130
G01 X2.6133 Y-0.2139
G01 X2.6081 Y-0.2172
G01 X2.4965 Y-0.3290
G01 X2.4944 Y-0.3328
G01 X2.4936 Y-0.3365
G01 X2.4935 Y-0.3641
G01 X2.4838 Y-0.3698
G01 X2.4755 Y-0.3790
G01 X2.4716 Y-0.3872
G01 X2.4695 Y-0.3997
G01 X2.4697 Y-0.4244
G01 X2.4705 Y-0.4291
G01 X2.4732 Y-0.4368
G01 X2.4777 Y-0.4441
G01 X2.4810 Y-0.4477
G01 X2.4873 Y-0.4527
G01 X2.4935 Y-0.4559
G01 X2.4935 Y-0.5890
G01 X2.4605 Y-0.6220
G01 X2.2985 Y-0.6220
G01 X2.2939 Y-0.6228
G01 X2.2882 Y-0.6263
G01 X2.2140 Y-0.7005
G01 X2.1033 Y-0.7005
G01 X2.1033 Y-0.6810
G01 X2.1024 Y-0.6787
G01 X2.1003 Y-0.6773
G01 X2.0319 Y-0.6770
G01 X2.0291 Y-0.6780
G01 X2.0275 Y-0.6805
G01 X2.0274 Y-0.7005
G01 X1.3800 Y-0.7005
G01 X1.3754 Y-0.7012
G01 X1.3697 Y-0.7047
G01 X1.1479 Y-0.9270
G01 X1.1463 Y-0.9304
G01 X1.1455 Y-0.9350
G01 X1.1455 Y-1.0352
G00 Z0.1000
G00 X1.2963 Y-1.1019
G01 F3.00
G01 Z-0.0020
G01 F3.00
G01 X1.3224 Y-1.1023
G01 X1.3247 Y-1.1014
G01 X1.3261 Y-1.0993
G01 X1.3264 Y-1.0388
G01 X1.3254 Y-1.0360
G01 X1.3233 Y-1.0345
G01 X1.2977 Y-1.0343
G01 X1.2954 Y-1.0353
G01 X1.2940 Y-1.0373
G01 X1.2937 Y-1.0979
G01 X1.2944 Y-1.1002
G01 X1.2963 Y-1.1019
G00 Z0.1000
G00 X0.9859 Y-0.9272
G01 F3.00
G01 Z-0.0020
G01 F3.00
G01 X0.9862 Y-0.9656
G01 X0.9893 Y-0.9722
G01 X0.9951 Y-0.9763
G01 X0.9951 Y-1.0356
G01 X0.9937 Y-1.0388
G01 X0.9937 Y-1.0979
G01 X0.9955 Y-1.1015
G01 X0.9959 Y-1.1208
G01 X0.9971 Y-1.1244
G01 X0.9998 Y-1.1281
G01 X1.0236 Y-1.1519
G01 X1.0302 Y-1.1556
G01 X1.8719 Y-1.1559
G01 X1.8765 Y-1.1545
G01 X1.8803 Y-1.1518
G01 X2.3335 Y-0.6985
G01 X2.4863 Y-0.6985
G01 X2.7726 Y-0.9848
G01 X2.7697 Y-0.9956
G01 X2.7698 Y-1.0249
G01 X2.7716 Y-1.0328
G01 X2.7734 Y-1.0372
G01 X2.7777 Y-1.0441
G01 X2.7810 Y-1.0477
G01 X2.7911 Y-1.0549
G01 X2.7996 Y-1.0579
G01 X2.8121 Y-1.0586
G01 X2.8210 Y-1.0565
G01 X2.8318 Y-1.0505
G01 X2.8383 Y-1.0441
G01 X2.8426 Y-1.0372
G01 X2.8444 Y-1.0328
G01 X2.8465 Y-1.0205
G01 X2.8465 Y-0.9995
G01 X2.8455 Y-0.9909
G01 X2.8407 Y-0.9794
G01 X2.8350 Y-0.9723
G01 X2.8283 Y-0.9670
G01 X2.8111 Y-0.9588
G01 X2.8077 Y-0.9585
G01 X2.8034 Y-0.9592
G01 X2.7979 Y-0.9626
G01 X2.7931 Y-0.9643
G01 X2.5025 Y-0.6737
G01 X2.4984 Y-0.6708
G01 X2.4925 Y-0.6695
G01 X2.3275 Y-0.6695
G01 X2.3229 Y-0.6702
G01 X2.3187 Y-0.6725
G01 X1.8640 Y-1.1270
G01 X1.0397 Y-1.1270
G01 X1.0246 Y-1.1118
G01 X1.0246 Y-1.1015
G01 X1.0264 Y-1.0979
G01 X1.0264 Y-1.0388
G01 X1.0257 Y-1.0364
G01 X1.0241 Y-1.0349
G01 X1.0241 Y-0.9763
G01 X1.0300 Y-0.9722
G01 X1.0331 Y-0.9656
G01 X1.0333 Y-0.9272
G01 X1.0328 Y-0.9233
G01 X1.0290 Y-0.9170
G01 X1.0231 Y-0.9136
G01 X0.9989 Y-0.9131
G01 X0.9944 Y-0.9142
G01 X0.9899 Y-0.9174
G01 X0.9869 Y-0.9220
G01 X0.9859 Y-0.9272
G00 Z0.1000
G00 X0.8975 Y-1.0807
G01 F3.00
G01 Z-0.0020
G01 F3.00
G01 X0.8978 Y-1.1041
G01 X0.9005 Y-1.1099
G01 X0.9051 Y-1.1136
G01 X0.9113 Y-1.1152
G01 X0.9486 Y-1.1151
G01 X0.9539 Y-1.1136
G01 X0.9582 Y-1.1102
G01 X0.9604 Y-1.1067
G01 X0.9615 Y-1.1027
G01 X0.9613 Y-1.0794
G01 X0.9600 Y-1.0755
G01 X0.9576 Y-1.0721
G01 X0.9543 Y-1.0696
G01 X0.9503 Y-1.0681
G01 X0.9635 Y-1.0547
G01 X0.9656 Y-1.0509
G01 X0.9664 Y-1.0472
G01 X0.9665 Y-0.9200
G01 X0.9880 Y-0.8985
G01 X1.0585 Y-0.8985
G01 X1.0690 Y-0.9090
G01 X1.0690 Y-0.9140
G01 X1.0659 Y-0.9156
G01 X1.0628 Y-0.9184
G01 X1.0608 Y-0.9220
G01 X1.0598 Y-0.9260
G01 X1.0599 Y-0.9647
G01 X1.0615 Y-0.9699
G01 X1.0653 Y-0.9743
G01 X1.0489 Y-0.9904
G01 X1.0459 Y-0.9966
G01 X1.0455 Y-1.0352
G01 X1.0437 Y-1.0388
G01 X1.0438 Y-1.0984
G01 X1.0451 Y-1.1010
G01 X1.0477 Y-1.1023
G01 X1.0724 Y-1.1023
G01 X1.0754 Y-1.1007
G01 X1.0764 Y-1.0979
G01 X1.0764 Y-1.0388
G01 X1.0746 Y-1.0352
G01 X1.0746 Y-1.0060
G01 X1.0946 Y-0.9859
G01 X1.0972 Y-0.9812
G01 X1.0980 Y-0.9763
G01 X1.1029 Y-0.9732
G01 X1.1062 Y-0.9683
G01 X1.1071 Y-0.9631
G01 X1.1071 Y-0.9272
G01 X1.1065 Y-0.9229
G01 X1.1047 Y-0.9192
G01 X1.1018 Y-0.9161
G01 X1.0980 Y-0.9140
G01 X1.0978 Y-0.9011
G01 X1.0959 Y-0.8955
G01 X1.0737 Y-0.8728
G01 X1.0695 Y-0.8704
G01 X1.0648 Y-0.8695
G01 X0.9785 Y-0.8699
G01 X0.9719 Y-0.8736
G01 X0.9408 Y-0.9048
G01 X0.9384 Y-0.9090
G01 X0.9375 Y-0.9140
G01 X0.9375 Y-1.0399
G01 X0.9183 Y-1.0591
G01 X0.9159 Y-1.0633
G01 X0.9150 Y-1.0678
G01 X0.9086 Y-1.0681
G01 X0.9035 Y-1.0703
G01 X0.8992 Y-1.0751
G01 X0.8975 Y-1.0807
G00 Z0.1000
G00 X0.8075 Y-1.0052
G01 F3.00
G01 Z-0.0020
G01 F3.00
G01 X0.8075 Y-1.0267
G01 X0.8090 Y-1.0320
G01 X0.8117 Y-1.0356
G01 X0.8151 Y-1.0380
G01 X0.8190 Y-1.0394
G01 X0.8250 Y-1.0396
G01 X0.8250 Y-1.0687
G01 X0.8187 Y-1.0690
G01 X0.8140 Y-1.0710
G01 X0.8101 Y-1.0748
G01 X0.8079 Y-1.0799
G01 X0.8076 Y-1.1022
G01 X0.8091 Y-1.1085
G01 X0.8136 Y-1.1136
G01 X0.8200 Y-1.1160
G01 X0.8578 Y-1.1161
G01 X0.8640 Y-1.1145
G01 X0.8686 Y-1.1108
G01 X0.8714 Y-1.1050
G01 X0.8716 Y-1.0812
G01 X0.8694 Y-1.0752
G01 X0.8656 Y-1.0712
G01 X0.8605 Y-1.0690
G01 X0.8541 Y-1.0687
G01 X0.8540 Y-1.0396
G01 X0.8600 Y-1.0394
G01 X0.8643 Y-1.0378
G01 X0.8682 Y-1.0346
G01 X0.8707 Y-1.0304
G01 X0.8890 Y-1.0303
G01 X0.8951 Y-1.0283
G01 X0.9223 Y-1.0018
G01 X0.9250 Y-0.9980
G01 X0.9265 Y-0.9915
G01 X0.9265 Y-0.9050
G01 X0.9680 Y-0.8635
G01 X1.0810 Y-0.8635
G01 X1.1135 Y-0.8961
G01 X1.1135 Y-0.9948
G01 X1.0989 Y-1.0096
G01 X1.0959 Y-1.0157
G01 X1.0955 Y-1.0352
G01 X1.0937 Y-1.0388
G01 X1.0938 Y-1.0988
G01 X1.0951 Y-1.1010
G01 X1.0977 Y-1.1023
G01 X1.1233 Y-1.1021
G01 X1.1254 Y-1.1007
G01 X1.1264 Y-1.0979
G01 X1.1264 Y-1.0388
G01 X1.1246 Y-1.0352
G01 X1.1246 Y-1.0248
G01 X1.1395 Y-1.0096
G01 X1.1416 Y-1.0058
G01 X1.1425 Y-1.0022
G01 X1.1426 Y-0.8900
G01 X1.1416 Y-0.8850
G01 X1.1383 Y-0.8798
G01 X1.0973 Y-0.8387
G01 X1.0945 Y-0.8366
G01 X1.0905 Y-0.8349
G01 X0.9620 Y-0.8345
G01 X0.9570 Y-0.8354
G01 X0.9517 Y-0.8387
G01 X0.9017 Y-0.8887
G01 X0.8984 Y-0.8940
G01 X0.8975 Y-0.8990
G01 X0.8975 Y-0.9855
G01 X0.8816 Y-1.0014
G01 X0.8707 Y-1.0014
G01 X0.8666 Y-0.9956
G01 X0.8600 Y-0.9924
G01 X0.8204 Y-0.9923
G01 X0.8159 Y-0.9934
G01 X0.8114 Y-0.9965
G01 X0.8086 Y-1.0007
G01 X0.8075 Y-1.0052
G00 Z0.1000
G00 X2.0164 Y-1.5151
G01 F3.00
G01 Z-0.0020
G01 F3.00
G01 X2.0274 Y-1.5151
G01 X2.0274 Y-1.5000
G01 X2.0281 Y-1.4977
G01 X2.0314 Y-1.4956
G01 X2.0469 Y-1.4955
G01 X2.0469 Y-1.4845
G01 X2.0288 Y-1.4845
G01 X2.0231 Y-1.4869
G01 X2.0188 Y-1.4913
G01 X2.0164 Y-1.4970
G01 X2.0164 Y-1.5151
G00 Z0.1000
G00 X2.0838 Y-1.4845
G01 F3.00
G01 Z-0.0020
G01 F3.00
G01 X2.0838 Y-1.4955
G01 X2.0988 Y-1.4955
G01 X2.1012 Y-1.4962
G01 X2.1033 Y-1.4995
G01 X2.1033 Y-1.5151
G01 X2.1143 Y-1.5151
G01 X2.1143 Y-1.4970
G01 X2.1120 Y-1.4913
G01 X2.1076 Y-1.4869
G01 X2.1019 Y-1.4845
G01 X2.0838 Y-1.4845
G00 Z0.1000
G00 X2.3821 Y-1.3720
G01 F3.00
G01 Z-0.0020
G01 F3.00
G01 X2.3828 Y-1.3849
G01 X2.3859 Y-1.3938
G01 X2.3934 Y-1.4043
G01 X2.4033 Y-1.4116
G01 X2.4033 Y-1.4786
G01 X2.3935 Y-1.4859
G01 X2.3860 Y-1.4964
G01 X2.3829 Y-1.5053
G01 X2.3820 Y-1.5137
G01 X2.3822 Y-1.5187
G01 X2.3858 Y-1.5310
G01 X2.3905 Y-1.5386
G01 X2.3972 Y-1.5453
G01 X2.4085 Y-1.5515
G01 X2.4132 Y-1.5529
G01 X2.4219 Y-1.5539
G01 X2.4305 Y-1.5529
G01 X2.4353 Y-1.5515
G01 X2.4429 Y-1.5479
G01 X2.4470 Y-1.5450
G01 X2.4529 Y-1.5390
G01 X2.4572 Y-1.5324
G01 X2.5125 Y-1.5324
G01 X2.5127 Y-1.5384
G01 X2.5145 Y-1.5462
G01 X2.5163 Y-1.5506
G01 X2.5205 Y-1.5574
G01 X2.5237 Y-1.5610
G01 X2.5300 Y-1.5659
G01 X2.5341 Y-1.5682
G01 X2.5421 Y-1.5710
G01 X2.5544 Y-1.5717
G01 X2.5591 Y-1.5709
G01 X2.5666 Y-1.5682
G01 X2.5708 Y-1.5659
G01 X2.5770 Y-1.5610
G01 X2.5835 Y-1.5524
G01 X2.6124 Y-1.5524
G01 X2.6125 Y-1.5684
G01 X2.6137 Y-1.5706
G01 X2.6159 Y-1.5718
G01 X2.6838 Y-1.5719
G01 X2.6870 Y-1.5706
G01 X2.6883 Y-1.5679
G01 X2.6883 Y-1.5324
G01 X2.7554 Y-1.5324
G01 X2.7556 Y-1.5504
G01 X2.7568 Y-1.5526
G01 X2.7595 Y-1.5538
G01 X2.8308 Y-1.5539
G01 X2.8336 Y-1.5529
G01 X2.8351 Y-1.5508
G01 X2.8351 Y-1.4770
G01 X2.8336 Y-1.4750
G01 X2.8313 Y-1.4740
G01 X2.8138 Y-1.4740
G01 X2.8137 Y-1.4488
G01 X2.8119 Y-1.4424
G01 X2.8084 Y-1.4376
G01 X2.7827 Y-1.4119
G01 X2.7827 Y-1.3816
G01 X2.7923 Y-1.3746
G01 X2.7982 Y-1.3673
G01 X2.8032 Y-1.3554
G01 X2.8042 Y-1.3460
G01 X2.8021 Y-1.3333
G01 X2.8001 Y-1.3287
G01 X2.7957 Y-1.3215
G01 X2.7890 Y-1.3149
G01 X2.7777 Y-1.3086
G01 X2.7690 Y-1.3066
G01 X2.7601 Y-1.3065
G01 X2.7513 Y-1.3085
G01 X2.7429 Y-1.3125
G01 X2.7362 Y-1.3178
G01 X2.7306 Y-1.3248
G01 X2.7267 Y-1.3328
G01 X2.7246 Y-1.3415
G01 X2.7244 Y-1.3465
G01 X2.7253 Y-1.3549
G01 X2.7284 Y-1.3638
G01 X2.7359 Y-1.3743
G01 X2.7458 Y-1.3816
G01 X2.7458 Y-1.4231
G01 X2.7476 Y-1.4306
G01 X2.7514 Y-1.4361
G01 X2.7547 Y-1.4386
G01 X2.7592 Y-1.4406
G01 X2.7769 Y-1.4583
G01 X2.7769 Y-1.4740
G01 X2.7595 Y-1.4740
G01 X2.7561 Y-1.4761
G01 X2.7554 Y-1.4785
G01 X2.7554 Y-1.4955
G01 X2.6164 Y-1.4960
G01 X2.6137 Y-1.4973
G01 X2.6125 Y-1.4995
G01 X2.6124 Y-1.5155
G01 X2.5835 Y-1.5155
G01 X2.5774 Y-1.5073
G01 X2.5708 Y-1.5019
G01 X2.5632 Y-1.4982
G01 X2.5549 Y-1.4962
G01 X2.5464 Y-1.4962
G01 X2.5391 Y-1.4977
G01 X2.5347 Y-1.4960
G01 X2.5304 Y-1.4955
G01 X2.4572 Y-1.4955
G01 X2.4499 Y-1.4855
G01 X2.4402 Y-1.4785
G01 X2.4402 Y-1.4116
G01 X2.4498 Y-1.4046
G01 X2.4555 Y-1.3977
G01 X2.4594 Y-1.3897
G01 X2.4614 Y-1.3810
G01 X2.4617 Y-1.3760
G01 X2.4608 Y-1.3676
G01 X2.4594 Y-1.3628
G01 X2.4557 Y-1.3552
G01 X2.4528 Y-1.3511
G01 X2.4469 Y-1.3452
G01 X2.4428 Y-1.3423
G01 X2.4352 Y-1.3386
G01 X2.4304 Y-1.3373
G01 X2.4220 Y-1.3363
G01 X2.4127 Y-1.3374
G01 X2.4047 Y-1.3402
G01 X2.4004 Y-1.3425
G01 X2.3907 Y-1.3511
G01 X2.3878 Y-1.3552
G01 X2.3842 Y-1.3628
G01 X2.3821 Y-1.3720
G00 Z0.1000
G00 X2.6246 Y-1.3420
G01 F3.00
G01 Z-0.0020
G01 F3.00
G01 X2.6246 Y-1.3510
G01 X2.6267 Y-1.3597
G01 X2.6306 Y-1.3676
G01 X2.6362 Y-1.3746
G01 X2.6433 Y-1.3802
G01 X2.6513 Y-1.3840
G01 X2.6601 Y-1.3859
G01 X2.6690 Y-1.3859
G01 X2.6814 Y-1.3823
G01 X2.6894 Y-1.3773
G01 X2.6980 Y-1.3677
G01 X2.7004 Y-1.3634
G01 X2.7032 Y-1.3554
G01 X2.7040 Y-1.3505
G01 X2.7039 Y-1.3415
G01 X2.7021 Y-1.3333
G01 X2.7001 Y-1.3287
G01 X2.6957 Y-1.3215
G01 X2.6923 Y-1.3178
G01 X2.6857 Y-1.3126
G01 X2.6788 Y-1.3091
G01 X2.6788 Y-1.3021
G01 X2.6928 Y-1.2881
G01 X2.9433 Y-1.2881
G01 X3.0115 Y-1.3561
G01 X3.0185 Y-1.3590
G01 X3.0358 Y-1.3592
G01 X3.0361 Y-1.3668
G01 X3.0389 Y-1.3696
G01 X3.0571 Y-1.3698
G01 X3.0478 Y-1.3732
G01 X3.0415 Y-1.3788
G01 X3.0373 Y-1.3861
G01 X3.0358 Y-1.3947
G01 X3.0373 Y-1.4032
G01 X3.0415 Y-1.4105
G01 X3.0455 Y-1.4145
G01 X3.0499 Y-1.4172
G01 X3.0582 Y-1.4197
G01 X3.0503 Y-1.4219
G01 X3.0434 Y-1.4267
G01 X3.0396 Y-1.4315
G01 X3.0366 Y-1.4388
G01 X3.0051 Y-1.4702
G01 X2.9810 Y-1.4706
G01 X2.9751 Y-1.4733
G01 X2.9714 Y-1.4779
G01 X2.9698 Y-1.4841
G01 X2.9704 Y-1.5074
G01 X2.9721 Y-1.5112
G01 X2.9748 Y-1.5143
G01 X2.9783 Y-1.5165
G01 X2.9823 Y-1.5175
G01 X3.0201 Y-1.5176
G01 X3.0263 Y-1.5161
G01 X3.0309 Y-1.5123
G01 X3.0336 Y-1.5065
G01 X3.0338 Y-1.4825
G01 X3.0494 Y-1.4669
G01 X3.0584 Y-1.4697
G01 X3.0813 Y-1.4697
G01 X3.0894 Y-1.4674
G01 X3.0963 Y-1.4626
G01 X3.1002 Y-1.4578
G01 X3.1033 Y-1.4501
G01 X3.1039 Y-1.4444
G01 X3.1026 Y-1.4366
G01 X3.0999 Y-1.4311
G01 X3.0946 Y-1.4251
G01 X3.0894 Y-1.4219
G01 X3.0816 Y-1.4197
G01 X3.0868 Y-1.4185
G01 X3.0919 Y-1.4161
G01 X3.0963 Y-1.4126
G01 X3.0992 Y-1.4092
G01 X3.1351 Y-1.4092
G01 X3.1372 Y-1.4126
G01 X3.1399 Y-1.4150
G01 X3.1468 Y-1.4175
G01 X3.1841 Y-1.4175
G01 X3.1894 Y-1.4164
G01 X3.1937 Y-1.4136
G01 X3.1964 Y-1.4099
G01 X3.1978 Y-1.4050
G01 X3.1974 Y-1.3804
G01 X3.1937 Y-1.3741
G01 X3.1877 Y-1.3707
G01 X3.1838 Y-1.3702
G01 X3.1463 Y-1.3703
G01 X3.1423 Y-1.3713
G01 X3.1388 Y-1.3735
G01 X3.1361 Y-1.3766
G01 X3.1344 Y-1.3802
G01 X3.0993 Y-1.3802
G01 X3.0963 Y-1.3767
G01 X3.0919 Y-1.3732
G01 X3.0827 Y-1.3698
G01 X3.0999 Y-1.3698
G01 X3.1022 Y-1.3688
G01 X3.1037 Y-1.3668
G01 X3.1039 Y-1.3240
G01 X3.1022 Y-1.3205
G01 X3.0994 Y-1.3195
G01 X3.0398 Y-1.3195
G01 X3.0375 Y-1.3205
G01 X3.0361 Y-1.3225
G01 X3.0358 Y-1.3302
G01 X3.0264 Y-1.3302
G01 X2.9594 Y-1.2632
G01 X2.9554 Y-1.2605
G01 X2.9507 Y-1.2592
G01 X2.6833 Y-1.2595
G01 X2.6767 Y-1.2632
G01 X2.6528 Y-1.2873
G01 X2.6499 Y-1.2943
G01 X2.6498 Y-1.3091
G01 X2.6396 Y-1.3149
G01 X2.6329 Y-1.3215
G01 X2.6267 Y-1.3328
G01 X2.6246 Y-1.3420
G00 Z0.1000
G00 X2.8269 Y-1.3857
G01 F3.00
G01 Z-0.0020
G01 F3.00
G01 X2.8458 Y-1.3862
G01 X2.8459 Y-1.4114
G01 X2.8478 Y-1.4178
G01 X2.8512 Y-1.4226
G01 X2.8769 Y-1.4483
G01 X2.8769 Y-1.4786
G01 X2.8673 Y-1.4855
G01 X2.8614 Y-1.4929
G01 X2.8565 Y-1.5048
G01 X2.8554 Y-1.5139
G01 X2.8565 Y-1.5231
G01 X2.8614 Y-1.5350
G01 X2.8673 Y-1.5424
G01 X2.8769 Y-1.5493
G01 X2.8769 Y-1.6136
G01 X2.8673 Y-1.6205
G01 X2.8614 Y-1.6279
G01 X2.8565 Y-1.6398
G01 X2.8554 Y-1.6489
G01 X2.8565 Y-1.6581
G01 X2.8614 Y-1.6700
G01 X2.8673 Y-1.6774
G01 X2.8769 Y-1.6843
G01 X2.8769 Y-1.7088
G01 X2.8505 Y-1.7353
G01 X2.8475 Y-1.7407
G01 X2.8464 Y-1.7463
G01 X2.8289 Y-1.7463
G01 X2.8266 Y-1.7473
G01 X2.8253 Y-1.7489
G01 X2.8248 Y-1.8217
G01 X2.8258 Y-1.8245
G01 X2.8293 Y-1.8262
G01 X2.9002 Y-1.8262
G01 X2.9026 Y-1.8255
G01 X2.9047 Y-1.8222
G01 X2.9047 Y-1.7932
G01 X3.1095 Y-1.5884
G01 X3.1824 Y-1.5884
G01 X3.2116 Y-1.6176
G01 X3.2116 Y-1.9164
G01 X3.2032 Y-1.9240
G01 X3.1980 Y-1.9335
G01 X3.1962 Y-1.9414
G01 X3.1968 Y-1.9523
G01 X3.1992 Y-1.9595
G01 X3.2036 Y-1.9664
G01 X3.2090 Y-1.9718
G01 X3.2185 Y-1.9770
G01 X3.2259 Y-1.9788
G01 X3.2341 Y-1.9788
G01 X3.2445 Y-1.9758
G01 X3.2510 Y-1.9718
G01 X3.2564 Y-1.9664
G01 X3.2605 Y-1.9600
G01 X3.2632 Y-1.9524
G01 X3.2640 Y-1.9450
G01 X3.2631 Y-1.9372
G01 X3.2605 Y-1.9300
G01 X3.2564 Y-1.9236
G01 X3.2484 Y-1.9164
G01 X3.2484 Y-1.6100
G01 X3.2475 Y-1.6041
G01 X3.2446 Y-1.5987
G01 X3.2030 Y-1.5570
G01 X3.1959 Y-1.5525
G01 X3.1900 Y-1.5516
G01 X3.0980 Y-1.5520
G01 X3.0936 Y-1.5535
G01 X3.0888 Y-1.5570
G01 X2.9798 Y-1.6659
G01 X2.9385 Y-1.6659
G01 X2.9334 Y-1.6609
G01 X2.9351 Y-1.6532
G01 X2.9351 Y-1.6447
G01 X2.9342 Y-1.6398
G01 X2.9315 Y-1.6318
G01 X2.9291 Y-1.6275
G01 X2.9238 Y-1.6209
G01 X2.9138 Y-1.6136
G01 X2.9138 Y-1.5493
G01 X2.9238 Y-1.5420
G01 X2.9291 Y-1.5354
G01 X2.9315 Y-1.5311
G01 X2.9350 Y-1.5187
G01 X2.9353 Y-1.5137
G01 X2.9344 Y-1.5053
G01 X2.9315 Y-1.4968
G01 X2.9268 Y-1.4892
G01 X2.9205 Y-1.4829
G01 X2.9138 Y-1.4786
G01 X2.9138 Y-1.4387
G01 X2.9119 Y-1.4307
G01 X2.9082 Y-1.4257
G01 X2.9030 Y-1.4221
G01 X2.8827 Y-1.4019
G01 X2.8827 Y-1.3862
G01 X2.9002 Y-1.3861
G01 X2.9029 Y-1.3849
G01 X2.9041 Y-1.3827
G01 X2.9042 Y-1.3108
G01 X2.9029 Y-1.3076
G01 X2.8997 Y-1.3063
G01 X2.8288 Y-1.3063
G01 X2.8257 Y-1.3076
G01 X2.8243 Y-1.3108
G01 X2.8243 Y-1.3817
G01 X2.8250 Y-1.3840
G01 X2.8269 Y-1.3857
G00 Z0.1000
G00 X2.9416 Y-1.6192
G01 F3.00
G01 Z-0.0020
G01 F3.00
G01 X2.9420 Y-1.6255
G01 X2.9437 Y-1.6302
G01 X2.9473 Y-1.6354
G01 X2.9512 Y-1.6385
G01 X2.9574 Y-1.6410
G01 X2.9638 Y-1.6414
G01 X2.9687 Y-1.6403
G01 X2.9742 Y-1.6372
G01 X2.9774 Y-1.6341
G01 X2.9799 Y-1.6302
G01 X2.9815 Y-1.6260
G01 X2.9820 Y-1.6215
G01 X3.0121 Y-1.5915
G01 X3.0241 Y-1.5908
G01 X3.0286 Y-1.5884
G01 X3.0317 Y-1.5850
G01 X3.0339 Y-1.5785
G01 X3.0339 Y-1.5582
G01 X3.0333 Y-1.5539
G01 X3.0309 Y-1.5494
G01 X3.0263 Y-1.5456
G01 X3.0201 Y-1.5441
G01 X2.9828 Y-1.5441
G01 X2.9787 Y-1.5451
G01 X2.9751 Y-1.5471
G01 X2.9714 Y-1.5517
G01 X2.9698 Y-1.5582
G01 X2.9701 Y-1.5799
G01 X2.9716 Y-1.5842
G01 X2.9746 Y-1.5879
G01 X2.9615 Y-1.6010
G01 X2.9532 Y-1.6029
G01 X2.9476 Y-1.6067
G01 X2.9434 Y-1.6127
G01 X2.9416 Y-1.6192
G00 Z0.1000
G00 X3.1280 Y-1.6823
G01 F3.00
G01 Z-0.0020
G01 F3.00
G01 X3.1285 Y-1.7066
G01 X3.1313 Y-1.7118
G01 X3.1364 Y-1.7156
G01 X3.1418 Y-1.7168
G01 X3.1796 Y-1.7167
G01 X3.1859 Y-1.7143
G01 X3.1905 Y-1.7091
G01 X3.1921 Y-1.7027
G01 X3.1921 Y-1.6833
G01 X3.1911 Y-1.6783
G01 X3.1887 Y-1.6744
G01 X3.1848 Y-1.6712
G01 X3.1805 Y-1.6696
G01 X3.1745 Y-1.6694
G01 X3.1745 Y-1.6343
G01 X3.1791 Y-1.6299
G01 X3.1827 Y-1.6232
G01 X3.1841 Y-1.6175
G01 X3.1836 Y-1.6099
G01 X3.1819 Y-1.6047
G01 X3.1791 Y-1.6001
G01 X3.1753 Y-1.5963
G01 X3.1703 Y-1.5931
G01 X3.1652 Y-1.5914
G01 X3.1603 Y-1.5908
G01 X3.1518 Y-1.5923
G01 X3.1470 Y-1.5946
G01 X3.1431 Y-1.5977
G01 X3.1381 Y-1.6047
G01 X3.1359 Y-1.6125
G01 X3.1365 Y-1.6206
G01 X3.1396 Y-1.6280
G01 X3.1455 Y-1.6343
G01 X3.1455 Y-1.6694
G01 X3.1391 Y-1.6697
G01 X3.1340 Y-1.6719
G01 X3.1297 Y-1.6767
G01 X3.1280 Y-1.6823
G00 Z0.1000
G00 X3.1360 Y-1.5225
G01 F3.00
G01 Z-0.0020
G01 F3.00
G01 X3.1360 Y-1.5280
G01 X3.1381 Y-1.5353
G01 X3.1413 Y-1.5403
G01 X3.1469 Y-1.5453
G01 X3.1523 Y-1.5479
G01 X3.1600 Y-1.5492
G01 X3.1656 Y-1.5485
G01 X3.1726 Y-1.5456
G01 X3.1773 Y-1.5419
G01 X3.1819 Y-1.5353
G01 X3.1840 Y-1.5280
G01 X3.1839 Y-1.5216
G01 X3.2521 Y-1.4529
G01 X3.2538 Y-1.4496
G01 X3.2545 Y-1.4450
G01 X3.2545 Y-1.3140
G01 X3.2910 Y-1.2775
G01 X4.2837 Y-1.2775
G01 X4.2877 Y-1.2817
G01 X4.2923 Y-1.2847
G01 X4.2978 Y-1.2866
G01 X4.3030 Y-1.2872
G01 X4.3107 Y-1.2859
G01 X4.3160 Y-1.2834
G01 X4.3203 Y-1.2799
G01 X4.3247 Y-1.2737
G01 X4.3266 Y-1.2681
G01 X4.3271 Y-1.2605
G01 X4.3257 Y-1.2548
G01 X4.3232 Y-1.2497
G01 X4.3285 Y-1.2550
G01 X4.3285 Y-1.3279
G01 X4.2813 Y-1.3751
G01 X4.2603 Y-1.3749
G01 X4.2560 Y-1.3756
G01 X4.2502 Y-1.3792
G01 X4.2478 Y-1.3826
G01 X4.2465 Y-1.3861
G01 X4.2462 Y-1.4252
G01 X4.2469 Y-1.4293
G01 X4.2485 Y-1.4326
G01 X4.2523 Y-1.4366
G01 X4.2573 Y-1.4387
G01 X4.2797 Y-1.4391
G01 X4.2838 Y-1.4384
G01 X4.2875 Y-1.4366
G01 X4.2905 Y-1.4337
G01 X4.2926 Y-1.4302
G01 X4.2936 Y-1.4252
G01 X4.2936 Y-1.4038
G01 X4.3533 Y-1.3442
G01 X4.3566 Y-1.3389
G01 X4.3575 Y-1.3339
G01 X4.3572 Y-1.2460
G01 X4.3560 Y-1.2425
G01 X4.3534 Y-1.2389
G01 X4.3213 Y-1.2067
G01 X4.3171 Y-1.2038
G01 X4.3124 Y-1.2026
G01 X3.6567 Y-1.2025
G01 X3.5225 Y-1.0683
G01 X3.5225 Y-1.0559
G01 X3.5286 Y-1.0528
G01 X3.5354 Y-1.0473
G01 X3.5407 Y-1.0406
G01 X3.5444 Y-1.0328
G01 X3.5465 Y-1.0205
G01 X3.5465 Y-0.9995
G01 X3.5456 Y-0.9914
G01 X3.5428 Y-0.9832
G01 X3.5405 Y-0.9790
G01 X3.5350 Y-0.9723
G01 X3.5287 Y-0.9673
G01 X3.5210 Y-0.9635
G01 X3.5163 Y-0.9621
G01 X3.5080 Y-0.9612
G01 X3.4997 Y-0.9621
G01 X3.4950 Y-0.9635
G01 X3.4874 Y-0.9672
G01 X3.4781 Y-0.9755
G01 X3.4753 Y-0.9794
G01 X3.4718 Y-0.9868
G01 X3.4704 Y-0.9914
G01 X3.4695 Y-0.9995
G01 X3.4697 Y-1.0244
G01 X3.4716 Y-1.0328
G01 X3.4755 Y-1.0409
G01 X3.4806 Y-1.0473
G01 X3.4873 Y-1.0527
G01 X3.4935 Y-1.0559
G01 X3.4936 Y-1.0757
G01 X3.4950 Y-1.0808
G01 X3.4977 Y-1.0845
G01 X3.6405 Y-1.2273
G01 X3.6462 Y-1.2308
G01 X3.6507 Y-1.2315
G01 X4.3050 Y-1.2315
G01 X4.3163 Y-1.2428
G01 X4.3082 Y-1.2394
G01 X4.3030 Y-1.2388
G01 X4.2979 Y-1.2394
G01 X4.2900 Y-1.2426
G01 X4.2837 Y-1.2485
G01 X3.2815 Y-1.2489
G01 X3.2775 Y-1.2506
G01 X3.2747 Y-1.2527
G01 X3.2297 Y-1.2977
G01 X3.2262 Y-1.3034
G01 X3.2255 Y-1.3080
G01 X3.2255 Y-1.4390
G01 X3.1634 Y-1.5011
G01 X3.1575 Y-1.5009
G01 X3.1523 Y-1.5021
G01 X3.1474 Y-1.5044
G01 X3.1431 Y-1.5077
G01 X3.1381 Y-1.5147
G01 X3.1360 Y-1.5225
G00 Z0.1000
G00 X3.1339 Y-1.3093
G01 F3.00
G01 Z-0.0020
G01 F3.00
G01 X3.1341 Y-1.3326
G01 X3.1369 Y-1.3384
G01 X3.1415 Y-1.3422
G01 X3.1477 Y-1.3437
G01 X3.1841 Y-1.3437
G01 X3.1890 Y-1.3427
G01 X3.1926 Y-1.3407
G01 X3.1957 Y-1.3373
G01 X3.1977 Y-1.3322
G01 X3.1978 Y-1.3086
G01 X3.4192 Y-1.0871
G01 X3.4212 Y-1.0840
G01 X3.4224 Y-1.0793
G01 X3.4225 Y-1.0559
G01 X3.4318 Y-1.0505
G01 X3.4383 Y-1.0441
G01 X3.4442 Y-1.0332
G01 X3.4463 Y-1.0244
G01 X3.4465 Y-0.9997
G01 X3.4455 Y-0.9909
G01 X3.4428 Y-0.9832
G01 X3.4405 Y-0.9791
G01 X3.4322 Y-0.9698
G01 X3.4245 Y-0.9649
G01 X3.4164 Y-0.9621
G01 X3.4080 Y-0.9612
G01 X3.3992 Y-0.9622
G01 X3.3911 Y-0.9651
G01 X3.3838 Y-0.9698
G01 X3.3777 Y-0.9759
G01 X3.3718 Y-0.9868
G01 X3.3704 Y-0.9914
G01 X3.3695 Y-0.9995
G01 X3.3695 Y-1.0205
G01 X3.3705 Y-1.0291
G01 X3.3734 Y-1.0372
G01 X3.3781 Y-1.0445
G01 X3.3842 Y-1.0505
G01 X3.3935 Y-1.0559
G01 X3.3935 Y-1.0719
G01 X3.1691 Y-1.2963
G01 X3.1477 Y-1.2963
G01 X3.1427 Y-1.2973
G01 X3.1391 Y-1.2994
G01 X3.1363 Y-1.3024
G01 X3.1339 Y-1.3093
G00 Z0.1000
G00 X3.4151 Y-1.3890
G01 F3.00
G01 Z-0.0020
G01 F3.00
G01 X3.4151 Y-1.3980
G01 X3.4176 Y-1.4078
G01 X3.4173 Y-1.4127
G01 X3.4187 Y-1.4178
G01 X3.4213 Y-1.4214
G01 X3.4242 Y-1.4237
G01 X3.4282 Y-1.4254
G01 X3.4318 Y-1.4258
G01 X3.4363 Y-1.4286
G01 X3.4363 Y-1.4916
G01 X3.4265 Y-1.4989
G01 X3.4190 Y-1.5094
G01 X3.4159 Y-1.5183
G01 X3.4150 Y-1.5267
G01 X3.4152 Y-1.5317
G01 X3.4188 Y-1.5440
G01 X3.4235 Y-1.5516
G01 X3.4302 Y-1.5583
G01 X3.4415 Y-1.5645
G01 X3.4462 Y-1.5659
G01 X3.4549 Y-1.5669
G01 X3.4635 Y-1.5659
G01 X3.4683 Y-1.5645
G01 X3.4759 Y-1.5609
G01 X3.4800 Y-1.5580
G01 X3.4859 Y-1.5520
G01 X3.4902 Y-1.5454
G01 X3.5332 Y-1.5454
G01 X3.5366 Y-1.5572
G01 X3.5389 Y-1.5613
G01 X3.5439 Y-1.5676
G01 X3.5509 Y-1.5732
G01 X3.5626 Y-1.5780
G01 X3.5749 Y-1.5787
G01 X3.5796 Y-1.5779
G01 X3.5871 Y-1.5752
G01 X3.5913 Y-1.5729
G01 X3.5975 Y-1.5680
G01 X3.6040 Y-1.5594
G01 X3.6329 Y-1.5594
G01 X3.6330 Y-1.5754
G01 X3.6342 Y-1.5776
G01 X3.6364 Y-1.5788
G01 X3.7048 Y-1.5789
G01 X3.7075 Y-1.5776
G01 X3.7088 Y-1.5749
G01 X3.7088 Y-1.5424
G01 X3.7739 Y-1.5424
G01 X3.7741 Y-1.5604
G01 X3.7753 Y-1.5626
G01 X3.7780 Y-1.5638
G01 X3.8493 Y-1.5639
G01 X3.8521 Y-1.5629
G01 X3.8536 Y-1.5608
G01 X3.8536 Y-1.4870
G01 X3.8521 Y-1.4850
G01 X3.8498 Y-1.4840
G01 X3.8323 Y-1.4840
G01 X3.8323 Y-1.4604
G01 X3.8314 Y-1.4548
G01 X3.8281 Y-1.4489
G01 X3.8182 Y-1.4389
G01 X3.8182 Y-1.3986
G01 X3.8282 Y-1.3913
G01 X3.8335 Y-1.3847
G01 X3.8359 Y-1.3804
G01 X3.8394 Y-1.3680
G01 X3.8397 Y-1.3630
G01 X3.8388 Y-1.3546
G01 X3.8356 Y-1.3457
G01 X3.8308 Y-1.3381
G01 X3.8212 Y-1.3296
G01 X3.8132 Y-1.3256
G01 X3.8045 Y-1.3236
G01 X3.7956 Y-1.3235
G01 X3.7907 Y-1.3244
G01 X3.7822 Y-1.3274
G01 X3.7747 Y-1.3322
G01 X3.7684 Y-1.3385
G01 X3.7637 Y-1.3461
G01 X3.7608 Y-1.3545
G01 X3.7601 Y-1.3675
G01 X3.7609 Y-1.3724
G01 X3.7637 Y-1.3803
G01 X3.7661 Y-1.3847
G01 X3.7714 Y-1.3913
G01 X3.7813 Y-1.3986
G01 X3.7813 Y-1.4465
G01 X3.7823 Y-1.4524
G01 X3.7855 Y-1.4582
G01 X3.7954 Y-1.4683
G01 X3.7954 Y-1.4840
G01 X3.7780 Y-1.4840
G01 X3.7746 Y-1.4861
G01 X3.7739 Y-1.4885
G01 X3.7739 Y-1.5055
G01 X3.7084 Y-1.5055
G01 X3.7067 Y-1.5037
G01 X3.7043 Y-1.5030
G01 X3.6369 Y-1.5030
G01 X3.6342 Y-1.5043
G01 X3.6330 Y-1.5065
G01 X3.6329 Y-1.5225
G01 X3.6040 Y-1.5225
G01 X3.5979 Y-1.5143
G01 X3.5913 Y-1.5089
G01 X3.5832 Y-1.5050
G01 X3.5749 Y-1.5032
G01 X3.5627 Y-1.5039
G01 X3.5512 Y-1.5085
G01 X3.4902 Y-1.5085
G01 X3.4829 Y-1.4985
G01 X3.4732 Y-1.4915
G01 X3.4732 Y-1.4286
G01 X3.4828 Y-1.4216
G01 X3.4885 Y-1.4147
G01 X3.4924 Y-1.4067
G01 X3.4944 Y-1.3980
G01 X3.4947 Y-1.3930
G01 X3.4938 Y-1.3846
G01 X3.4924 Y-1.3798
G01 X3.4885 Y-1.3718
G01 X3.4799 Y-1.3622
G01 X3.4758 Y-1.3593
G01 X3.4682 Y-1.3556
G01 X3.4634 Y-1.3543
G01 X3.4550 Y-1.3533
G01 X3.4457 Y-1.3544
G01 X3.4377 Y-1.3572
G01 X3.4334 Y-1.3595
G01 X3.4237 Y-1.3681
G01 X3.4208 Y-1.3722
G01 X3.4172 Y-1.3798
G01 X3.4151 Y-1.3890
G00 Z0.1000
G00 X3.6601 Y-1.3590
G01 F3.00
G01 Z-0.0020
G01 F3.00
G01 X3.6601 Y-1.3680
G01 X3.6622 Y-1.3767
G01 X3.6661 Y-1.3846
G01 X3.6717 Y-1.3916
G01 X3.6788 Y-1.3972
G01 X3.6868 Y-1.4010
G01 X3.6956 Y-1.4029
G01 X3.7045 Y-1.4029
G01 X3.7127 Y-1.4010
G01 X3.7208 Y-1.3972
G01 X3.7249 Y-1.3943
G01 X3.7312 Y-1.3879
G01 X3.7374 Y-1.3767
G01 X3.7394 Y-1.3680
G01 X3.7394 Y-1.3585
G01 X3.7363 Y-1.3472
G01 X3.7652 Y-1.3183
G01 X3.9998 Y-1.3183
G01 X4.0523 Y-1.3704
G01 X4.0589 Y-1.3727
G01 X4.0758 Y-1.3727
G01 X4.0760 Y-1.3804
G01 X4.0788 Y-1.3832
G01 X4.0970 Y-1.3834
G01 X4.0877 Y-1.3868
G01 X4.0814 Y-1.3923
G01 X4.0773 Y-1.3997
G01 X4.0758 Y-1.4082
G01 X4.0773 Y-1.4168
G01 X4.0814 Y-1.4241
G01 X4.0854 Y-1.4281
G01 X4.0898 Y-1.4308
G01 X4.0981 Y-1.4332
G01 X4.0929 Y-1.4344
G01 X4.0877 Y-1.4368
G01 X4.0833 Y-1.4403
G01 X4.0804 Y-1.4437
G01 X4.0719 Y-1.4439
G01 X4.0659 Y-1.4461
G01 X4.0351 Y-1.4764
G01 X4.0114 Y-1.4767
G01 X4.0059 Y-1.4789
G01 X4.0021 Y-1.4829
G01 X3.9999 Y-1.4894
G01 X4.0004 Y-1.5136
G01 X4.0021 Y-1.5174
G01 X4.0048 Y-1.5205
G01 X4.0083 Y-1.5227
G01 X4.0123 Y-1.5237
G01 X4.0510 Y-1.5238
G01 X4.0550 Y-1.5228
G01 X4.0586 Y-1.5208
G01 X4.0617 Y-1.5174
G01 X4.0637 Y-1.5123
G01 X4.0638 Y-1.4887
G01 X4.0798 Y-1.4727
G01 X4.0877 Y-1.4797
G01 X4.0929 Y-1.4821
G01 X4.0984 Y-1.4833
G01 X4.1217 Y-1.4832
G01 X4.1293 Y-1.4810
G01 X4.1341 Y-1.4781
G01 X4.1398 Y-1.4718
G01 X4.1425 Y-1.4663
G01 X4.1438 Y-1.4585
G01 X4.1431 Y-1.4524
G01 X4.1398 Y-1.4447
G01 X4.1345 Y-1.4387
G01 X4.1294 Y-1.4355
G01 X4.1215 Y-1.4332
G01 X4.1267 Y-1.4321
G01 X4.1318 Y-1.4297
G01 X4.1363 Y-1.4262
G01 X4.1393 Y-1.4226
G01 X4.1724 Y-1.4226
G01 X4.1729 Y-1.4288
G01 X4.1757 Y-1.4341
G01 X4.1809 Y-1.4379
G01 X4.1863 Y-1.4391
G01 X4.2059 Y-1.4391
G01 X4.2109 Y-1.4381
G01 X4.2167 Y-1.4337
G01 X4.2186 Y-1.4306
G01 X4.2197 Y-1.4266
G01 X4.2197 Y-1.3874
G01 X4.2175 Y-1.3814
G01 X4.2133 Y-1.3772
G01 X4.2068 Y-1.3750
G01 X4.1835 Y-1.3753
G01 X4.1785 Y-1.3774
G01 X4.1747 Y-1.3814
G01 X4.1726 Y-1.3865
G01 X4.1724 Y-1.3936
G01 X4.1391 Y-1.3936
G01 X4.1363 Y-1.3903
G01 X4.1318 Y-1.3868
G01 X4.1226 Y-1.3834
G01 X4.1398 Y-1.3834
G01 X4.1421 Y-1.3824
G01 X4.1436 Y-1.3804
G01 X4.1438 Y-1.3376
G01 X4.1421 Y-1.3340
G01 X4.1393 Y-1.3331
G01 X4.0798 Y-1.3331
G01 X4.0775 Y-1.3340
G01 X4.0760 Y-1.3361
G01 X4.0758 Y-1.3437
G01 X4.0663 Y-1.3437
G01 X4.0159 Y-1.2934
G01 X4.0119 Y-1.2906
G01 X4.0077 Y-1.2894
G01 X3.7562 Y-1.2896
G01 X3.7527 Y-1.2908
G01 X3.7491 Y-1.2934
G01 X3.7158 Y-1.3267
G01 X3.7045 Y-1.3236
G01 X3.6951 Y-1.3236
G01 X3.6827 Y-1.3272
G01 X3.6751 Y-1.3319
G01 X3.6687 Y-1.3381
G01 X3.6639 Y-1.3457
G01 X3.6609 Y-1.3541
G01 X3.6601 Y-1.3590
G00 Z0.1000
G00 X3.6697 Y-0.9957
G01 F3.00
G01 Z-0.0020
G01 F3.00
G01 X3.6695 Y-1.0203
G01 X3.6705 Y-1.0291
G01 X3.6732 Y-1.0368
G01 X3.6755 Y-1.0409
G01 X3.6806 Y-1.0473
G01 X3.6842 Y-1.0505
G01 X3.6911 Y-1.0549
G01 X3.6955 Y-1.0567
G01 X3.7034 Y-1.0585
G01 X3.7083 Y-1.0588
G01 X3.7168 Y-1.0578
G01 X3.7245 Y-1.0551
G01 X3.7287 Y-1.0527
G01 X3.7350 Y-1.0477
G01 X3.7407 Y-1.0406
G01 X3.7456 Y-1.0287
G01 X3.7465 Y-1.0203
G01 X3.7462 Y-0.9951
G01 X3.7442 Y-0.9868
G01 X3.7383 Y-0.9759
G01 X3.7318 Y-0.9695
G01 X3.7225 Y-0.9641
G01 X3.7225 Y-0.9517
G01 X3.8627 Y-0.8115
G01 X4.5110 Y-0.8115
G01 X4.5264 Y-0.8269
G01 X4.5211 Y-0.8305
G01 X4.5155 Y-0.8361
G01 X4.5127 Y-0.8400
G01 X4.5093 Y-0.8472
G01 X4.5079 Y-0.8518
G01 X4.5070 Y-0.8600
G01 X4.5091 Y-0.8723
G01 X4.5130 Y-0.8804
G01 X4.5211 Y-0.8895
G01 X4.5250 Y-0.8923
G01 X4.5322 Y-0.8957
G01 X4.5410 Y-0.8977
G01 X4.5495 Y-0.8977
G01 X4.5578 Y-0.8957
G01 X4.5654 Y-0.8920
G01 X4.5720 Y-0.8867
G01 X4.5773 Y-0.8800
G01 X4.5809 Y-0.8723
G01 X4.5827 Y-0.8640
G01 X4.5827 Y-0.8555
G01 X4.5793 Y-0.8438
G01 X4.5745 Y-0.8361
G01 X4.5685 Y-0.8302
G01 X4.5595 Y-0.8250
G01 X4.5586 Y-0.8200
G01 X4.5562 Y-0.8158
G01 X4.5273 Y-0.7867
G01 X4.5231 Y-0.7838
G01 X4.5184 Y-0.7826
G01 X3.8548 Y-0.7826
G01 X3.8502 Y-0.7840
G01 X3.8465 Y-0.7867
G01 X3.6968 Y-0.9365
G01 X3.6948 Y-0.9396
G01 X3.6936 Y-0.9438
G01 X3.6935 Y-0.9641
G01 X3.6842 Y-0.9695
G01 X3.6777 Y-0.9759
G01 X3.6718 Y-0.9868
G01 X3.6697 Y-0.9957
G00 Z0.1000
G00 X3.7697 Y-0.9957
G01 F3.00
G01 Z-0.0020
G01 F3.00
G01 X3.7695 Y-1.0203
G01 X3.7704 Y-1.0286
G01 X3.7734 Y-1.0372
G01 X3.7777 Y-1.0441
G01 X3.7810 Y-1.0477
G01 X3.7873 Y-1.0527
G01 X3.7915 Y-1.0551
G01 X3.7992 Y-1.0578
G01 X3.8039 Y-1.0586
G01 X3.8121 Y-1.0586
G01 X3.8168 Y-1.0578
G01 X3.8245 Y-1.0551
G01 X3.8286 Y-1.0528
G01 X3.8350 Y-1.0477
G01 X3.8405 Y-1.0410
G01 X3.8428 Y-1.0368
G01 X3.8456 Y-1.0287
G01 X3.8465 Y-1.0205
G01 X3.8465 Y-0.9995
G01 X3.8456 Y-0.9914
G01 X3.8434 Y-0.9848
G01 X3.9537 Y-0.8745
G01 X4.3650 Y-0.8745
G01 X4.3705 Y-0.8839
G01 X4.3796 Y-0.8920
G01 X4.3877 Y-0.8959
G01 X4.3955 Y-0.8977
G01 X4.4003 Y-0.8980
G01 X4.4087 Y-0.8969
G01 X4.4167 Y-0.8941
G01 X4.4239 Y-0.8895
G01 X4.4298 Y-0.8835
G01 X4.4343 Y-0.8763
G01 X4.4370 Y-0.8683
G01 X4.4380 Y-0.8600
G01 X4.4371 Y-0.8518
G01 X4.4357 Y-0.8472
G01 X4.4320 Y-0.8396
G01 X4.4239 Y-0.8305
G01 X4.4200 Y-0.8277
G01 X4.4128 Y-0.8243
G01 X4.4082 Y-0.8229
G01 X4.4000 Y-0.8220
G01 X4.3877 Y-0.8241
G01 X4.3796 Y-0.8280
G01 X4.3705 Y-0.8361
G01 X4.3650 Y-0.8455
G01 X3.9447 Y-0.8458
G01 X3.9412 Y-0.8470
G01 X3.9375 Y-0.8497
G01 X3.8229 Y-0.9643
G01 X3.8126 Y-0.9615
G01 X3.8039 Y-0.9614
G01 X3.7955 Y-0.9633
G01 X3.7877 Y-0.9670
G01 X3.7806 Y-0.9727
G01 X3.7753 Y-0.9794
G01 X3.7716 Y-0.9872
G01 X3.7697 Y-0.9957
G00 Z0.1000
G00 X3.8697 Y-0.9957
G01 F3.00
G01 Z-0.0020
G01 F3.00
G01 X3.8695 Y-1.0205
G01 X3.8716 Y-1.0328
G01 X3.8734 Y-1.0372
G01 X3.8777 Y-1.0441
G01 X3.8810 Y-1.0477
G01 X3.8873 Y-1.0527
G01 X3.8950 Y-1.0565
G01 X3.8997 Y-1.0579
G01 X3.9080 Y-1.0588
G01 X3.9163 Y-1.0579
G01 X3.9245 Y-1.0551
G01 X3.9287 Y-1.0527
G01 X3.9354 Y-1.0473
G01 X3.9405 Y-1.0410
G01 X3.9442 Y-1.0332
G01 X3.9462 Y-1.0249
G01 X3.9462 Y-0.9951
G01 X3.9442 Y-0.9868
G01 X3.9405 Y-0.9791
G01 X3.9354 Y-0.9727
G01 X3.9287 Y-0.9673
G01 X3.9205 Y-0.9633
G01 X3.9083 Y-0.9612
G01 X3.8992 Y-0.9622
G01 X3.8911 Y-0.9651
G01 X3.8810 Y-0.9723
G01 X3.8755 Y-0.9790
G01 X3.8716 Y-0.9872
G01 X3.8697 Y-0.9957
G00 Z0.1000
G00 X3.9697 Y-0.9957
G01 F3.00
G01 Z-0.0020
G01 F3.00
G01 X3.9695 Y-1.0205
G01 X3.9716 Y-1.0328
G01 X3.9755 Y-1.0409
G01 X3.9806 Y-1.0473
G01 X3.9873 Y-1.0527
G01 X3.9935 Y-1.0559
G01 X3.9936 Y-1.0757
G01 X3.9958 Y-1.0822
G01 X4.0585 Y-1.1453
G01 X4.0622 Y-1.1480
G01 X4.0668 Y-1.1494
G01 X4.2585 Y-1.1491
G01 X4.2625 Y-1.1474
G01 X4.2653 Y-1.1453
G01 X4.3360 Y-1.0745
G01 X4.3620 Y-1.0745
G01 X4.3621 Y-1.0945
G01 X4.3634 Y-1.0966
G01 X4.3660 Y-1.0979
G01 X4.4349 Y-1.0977
G01 X4.4370 Y-1.0963
G01 X4.4379 Y-1.0940
G01 X4.4380 Y-1.0745
G01 X4.5070 Y-1.0745
G01 X4.5071 Y-1.0945
G01 X4.5084 Y-1.0966
G01 X4.5110 Y-1.0979
G01 X4.5790 Y-1.0979
G01 X4.5816 Y-1.0966
G01 X4.5829 Y-1.0940
G01 X4.5830 Y-1.0265
G01 X4.5820 Y-1.0237
G01 X4.5799 Y-1.0223
G01 X4.5110 Y-1.0221
G01 X4.5084 Y-1.0234
G01 X4.5071 Y-1.0255
G01 X4.5070 Y-1.0455
G01 X4.4380 Y-1.0455
G01 X4.4379 Y-1.0260
G01 X4.4370 Y-1.0237
G01 X4.4349 Y-1.0223
G01 X4.3665 Y-1.0220
G01 X4.3637 Y-1.0230
G01 X4.3621 Y-1.0255
G01 X4.3620 Y-1.0455
G01 X4.3286 Y-1.0456
G01 X4.3221 Y-1.0478
G01 X4.2490 Y-1.1205
G01 X4.0747 Y-1.1205
G01 X4.0225 Y-1.0683
G01 X4.0225 Y-1.0559
G01 X4.0318 Y-1.0505
G01 X4.0383 Y-1.0441
G01 X4.0442 Y-1.0332
G01 X4.0462 Y-1.0249
G01 X4.0462 Y-0.9951
G01 X4.0428 Y-0.9832
G01 X4.0379 Y-0.9755
G01 X4.0287 Y-0.9673
G01 X4.0245 Y-0.9649
G01 X4.0168 Y-0.9622
G01 X4.0077 Y-0.9612
G01 X3.9955 Y-0.9633
G01 X3.9911 Y-0.9651
G01 X3.9842 Y-0.9695
G01 X3.9777 Y-0.9759
G01 X3.9718 Y-0.9868
G01 X3.9697 Y-0.9957
G00 Z0.1000
G00 X4.0697 Y-0.9957
G01 F3.00
G01 Z-0.0020
G01 F3.00
G01 X4.0695 Y-1.0205
G01 X4.0704 Y-1.0286
G01 X4.0718 Y-1.0332
G01 X4.0755 Y-1.0409
G01 X4.0806 Y-1.0473
G01 X4.0842 Y-1.0505
G01 X4.0915 Y-1.0551
G01 X4.0996 Y-1.0579
G01 X4.1077 Y-1.0588
G01 X4.1163 Y-1.0579
G01 X4.1210 Y-1.0565
G01 X4.1318 Y-1.0505
G01 X4.1383 Y-1.0441
G01 X4.1442 Y-1.0332
G01 X4.1463 Y-1.0245
G01 X4.1697 Y-1.0245
G01 X4.1716 Y-1.0328
G01 X4.1734 Y-1.0372
G01 X4.1777 Y-1.0441
G01 X4.1838 Y-1.0502
G01 X4.1911 Y-1.0549
G01 X4.1955 Y-1.0567
G01 X4.2034 Y-1.0585
G01 X4.2121 Y-1.0586
G01 X4.2205 Y-1.0567
G01 X4.2286 Y-1.0528
G01 X4.2354 Y-1.0473
G01 X4.2407 Y-1.0406
G01 X4.2444 Y-1.0328
G01 X4.2463 Y-1.0244
G01 X4.2465 Y-0.9997
G01 X4.2458 Y-0.9927
G01 X4.2640 Y-0.9745
G01 X4.3650 Y-0.9745
G01 X4.3705 Y-0.9839
G01 X4.3796 Y-0.9920
G01 X4.3877 Y-0.9959
G01 X4.4000 Y-0.9980
G01 X4.4123 Y-0.9959
G01 X4.4204 Y-0.9920
G01 X4.4295 Y-0.9839
G01 X4.4350 Y-0.9745
G01 X4.5100 Y-0.9745
G01 X4.5155 Y-0.9839
G01 X4.5211 Y-0.9895
G01 X4.5250 Y-0.9923
G01 X4.5367 Y-0.9970
G01 X4.5490 Y-0.9977
G01 X4.5573 Y-0.9959
G01 X4.5617 Y-0.9941
G01 X4.5685 Y-0.9898
G01 X4.5745 Y-0.9839
G01 X4.5791 Y-0.9767
G01 X4.5809 Y-0.9723
G01 X4.5827 Y-0.9640
G01 X4.5827 Y-0.9560
G01 X4.5819 Y-0.9513
G01 X4.5793 Y-0.9438
G01 X4.5745 Y-0.9361
G01 X4.5689 Y-0.9305
G01 X4.5650 Y-0.9277
G01 X4.5578 Y-0.9243
G01 X4.5532 Y-0.9229
G01 X4.5453 Y-0.9220
G01 X4.5405 Y-0.9223
G01 X4.5327 Y-0.9241
G01 X4.5283 Y-0.9259
G01 X4.5215 Y-0.9302
G01 X4.5180 Y-0.9333
G01 X4.5130 Y-0.9396
G01 X4.5100 Y-0.9455
G01 X4.4350 Y-0.9455
G01 X4.4295 Y-0.9361
G01 X4.4239 Y-0.9305
G01 X4.4200 Y-0.9277
G01 X4.4083 Y-0.9230
G01 X4.3960 Y-0.9223
G01 X4.3872 Y-0.9243
G01 X4.3765 Y-0.9302
G01 X4.3702 Y-0.9365
G01 X4.3650 Y-0.9455
G01 X4.2566 Y-0.9456
G01 X4.2519 Y-0.9468
G01 X4.2488 Y-0.9488
G01 X4.2296 Y-0.9679
G01 X4.2210 Y-0.9635
G01 X4.2126 Y-0.9615
G01 X4.2039 Y-0.9614
G01 X4.1955 Y-0.9633
G01 X4.1873 Y-0.9673
G01 X4.1781 Y-0.9755
G01 X4.1732 Y-0.9832
G01 X4.1697 Y-0.9955
G01 X4.1463 Y-0.9955
G01 X4.1444 Y-0.9872
G01 X4.1407 Y-0.9794
G01 X4.1379 Y-0.9755
G01 X4.1318 Y-0.9695
G01 X4.1245 Y-0.9649
G01 X4.1164 Y-0.9621
G01 X4.1080 Y-0.9612
G01 X4.0997 Y-0.9621
G01 X4.0950 Y-0.9635
G01 X4.0874 Y-0.9672
G01 X4.0781 Y-0.9755
G01 X4.0753 Y-0.9794
G01 X4.0718 Y-0.9868
G01 X4.0697 Y-0.9957
G00 Z0.1000
G00 X3.5697 Y-0.9957
G01 F3.00
G01 Z-0.0020
G01 F3.00
G01 X3.5695 Y-1.0205
G01 X3.5716 Y-1.0328
G01 X3.5734 Y-1.0372
G01 X3.5777 Y-1.0441
G01 X3.5810 Y-1.0477
G01 X3.5873 Y-1.0527
G01 X3.5950 Y-1.0565
G01 X3.5997 Y-1.0579
G01 X3.6080 Y-1.0588
G01 X3.6163 Y-1.0579
G01 X3.6245 Y-1.0551
G01 X3.6287 Y-1.0527
G01 X3.6354 Y-1.0473
G01 X3.6405 Y-1.0410
G01 X3.6442 Y-1.0332
G01 X3.6462 Y-1.0249
G01 X3.6462 Y-0.9951
G01 X3.6442 Y-0.9868
G01 X3.6405 Y-0.9791
G01 X3.6354 Y-0.9727
G01 X3.6287 Y-0.9673
G01 X3.6205 Y-0.9633
G01 X3.6083 Y-0.9612
G01 X3.5992 Y-0.9622
G01 X3.5911 Y-0.9651
G01 X3.5810 Y-0.9723
G01 X3.5755 Y-0.9790
G01 X3.5716 Y-0.9872
G01 X3.5697 Y-0.9957
G00 Z0.1000
G00 X3.2697 Y-0.9957
G01 F3.00
G01 Z-0.0020
G01 F3.00
G01 X3.2695 Y-1.0205
G01 X3.2716 Y-1.0328
G01 X3.2734 Y-1.0372
G01 X3.2777 Y-1.0441
G01 X3.2810 Y-1.0477
G01 X3.2873 Y-1.0527
G01 X3.2950 Y-1.0565
G01 X3.2997 Y-1.0579
G01 X3.3080 Y-1.0588
G01 X3.3163 Y-1.0579
G01 X3.3245 Y-1.0551
G01 X3.3287 Y-1.0527
G01 X3.3354 Y-1.0473
G01 X3.3405 Y-1.0410
G01 X3.3442 Y-1.0332
G01 X3.3462 Y-1.0249
G01 X3.3462 Y-0.9951
G01 X3.3442 Y-0.9868
G01 X3.3405 Y-0.9791
G01 X3.3354 Y-0.9727
G01 X3.3287 Y-0.9673
G01 X3.3205 Y-0.9633
G01 X3.3083 Y-0.9612
G01 X3.2992 Y-0.9622
G01 X3.2911 Y-0.9651
G01 X3.2810 Y-0.9723
G01 X3.2755 Y-0.9790
G01 X3.2716 Y-0.9872
G01 X3.2697 Y-0.9957
G00 Z0.1000
G00 X3.1697 Y-0.9957
G01 F3.00
G01 Z-0.0020
G01 F3.00
G01 X3.1695 Y-1.0205
G01 X3.1716 Y-1.0328
G01 X3.1734 Y-1.0372
G01 X3.1777 Y-1.0441
G01 X3.1810 Y-1.0477
G01 X3.1873 Y-1.0527
G01 X3.1950 Y-1.0565
G01 X3.1997 Y-1.0579
G01 X3.2080 Y-1.0588
G01 X3.2163 Y-1.0579
G01 X3.2245 Y-1.0551
G01 X3.2287 Y-1.0527
G01 X3.2354 Y-1.0473
G01 X3.2405 Y-1.0410
G01 X3.2442 Y-1.0332
G01 X3.2462 Y-1.0249
G01 X3.2462 Y-0.9951
G01 X3.2442 Y-0.9868
G01 X3.2405 Y-0.9791
G01 X3.2354 Y-0.9727
G01 X3.2287 Y-0.9673
G01 X3.2205 Y-0.9633
G01 X3.2083 Y-0.9612
G01 X3.1992 Y-0.9622
G01 X3.1911 Y-0.9651
G01 X3.1810 Y-0.9723
G01 X3.1755 Y-0.9790
G01 X3.1716 Y-0.9872
G01 X3.1697 Y-0.9957
G00 Z0.1000
G00 X3.0697 Y-0.9957
G01 F3.00
G01 Z-0.0020
G01 F3.00
G01 X3.0695 Y-1.0205
G01 X3.0716 Y-1.0328
G01 X3.0734 Y-1.0372
G01 X3.0777 Y-1.0441
G01 X3.0810 Y-1.0477
G01 X3.0873 Y-1.0527
G01 X3.0950 Y-1.0565
G01 X3.0997 Y-1.0579
G01 X3.1080 Y-1.0588
G01 X3.1163 Y-1.0579
G01 X3.1245 Y-1.0551
G01 X3.1287 Y-1.0527
G01 X3.1354 Y-1.0473
G01 X3.1405 Y-1.0410
G01 X3.1442 Y-1.0332
G01 X3.1462 Y-1.0249
G01 X3.1462 Y-0.9951
G01 X3.1442 Y-0.9868
G01 X3.1405 Y-0.9791
G01 X3.1354 Y-0.9727
G01 X3.1287 Y-0.9673
G01 X3.1205 Y-0.9633
G01 X3.1083 Y-0.9612
G01 X3.0992 Y-0.9622
G01 X3.0911 Y-0.9651
G01 X3.0810 Y-0.9723
G01 X3.0755 Y-0.9790
G01 X3.0716 Y-0.9872
G01 X3.0697 Y-0.9957
G00 Z0.1000
G00 X2.9697 Y-0.9957
G01 F3.00
G01 Z-0.0020
G01 F3.00
G01 X2.9695 Y-1.0205
G01 X2.9716 Y-1.0328
G01 X2.9734 Y-1.0372
G01 X2.9777 Y-1.0441
G01 X2.9810 Y-1.0477
G01 X2.9873 Y-1.0527
G01 X2.9950 Y-1.0565
G01 X2.9997 Y-1.0579
G01 X3.0080 Y-1.0588
G01 X3.0163 Y-1.0579
G01 X3.0245 Y-1.0551
G01 X3.0287 Y-1.0527
G01 X3.0354 Y-1.0473
G01 X3.0405 Y-1.0410
G01 X3.0442 Y-1.0332
G01 X3.0462 Y-1.0249
G01 X3.0462 Y-0.9951
G01 X3.0442 Y-0.9868
G01 X3.0405 Y-0.9791
G01 X3.0354 Y-0.9727
G01 X3.0287 Y-0.9673
G01 X3.0205 Y-0.9633
G01 X3.0083 Y-0.9612
G01 X2.9992 Y-0.9622
G01 X2.9911 Y-0.9651
G01 X2.9810 Y-0.9723
G01 X2.9755 Y-0.9790
G01 X2.9716 Y-0.9872
G01 X2.9697 Y-0.9957
G00 Z0.1000
G00 X2.8697 Y-0.9957
G01 F3.00
G01 Z-0.0020
G01 F3.00
G01 X2.8695 Y-1.0205
G01 X2.8716 Y-1.0328
G01 X2.8734 Y-1.0372
G01 X2.8777 Y-1.0441
G01 X2.8810 Y-1.0477
G01 X2.8873 Y-1.0527
G01 X2.8950 Y-1.0565
G01 X2.8997 Y-1.0579
G01 X2.9080 Y-1.0588
G01 X2.9163 Y-1.0579
G01 X2.9245 Y-1.0551
G01 X2.9287 Y-1.0527
G01 X2.9354 Y-1.0473
G01 X2.9405 Y-1.0410
G01 X2.9442 Y-1.0332
G01 X2.9462 Y-1.0249
G01 X2.9462 Y-0.9951
G01 X2.9442 Y-0.9868
G01 X2.9405 Y-0.9791
G01 X2.9354 Y-0.9727
G01 X2.9287 Y-0.9673
G01 X2.9205 Y-0.9633
G01 X2.9083 Y-0.9612
G01 X2.8992 Y-0.9622
G01 X2.8911 Y-0.9651
G01 X2.8810 Y-0.9723
G01 X2.8755 Y-0.9790
G01 X2.8716 Y-0.9872
G01 X2.8697 Y-0.9957
G00 Z0.1000
G00 X2.5697 Y-0.9957
G01 F3.00
G01 Z-0.0020
G01 F3.00
G01 X2.5695 Y-1.0205
G01 X2.5716 Y-1.0328
G01 X2.5734 Y-1.0372
G01 X2.5777 Y-1.0441
G01 X2.5810 Y-1.0477
G01 X2.5873 Y-1.0527
G01 X2.5950 Y-1.0565
G01 X2.5997 Y-1.0579
G01 X2.6080 Y-1.0588
G01 X2.6163 Y-1.0579
G01 X2.6245 Y-1.0551
G01 X2.6287 Y-1.0527
G01 X2.6354 Y-1.0473
G01 X2.6405 Y-1.0410
G01 X2.6442 Y-1.0332
G01 X2.6462 Y-1.0249
G01 X2.6462 Y-0.9951
G01 X2.6442 Y-0.9868
G01 X2.6405 Y-0.9791
G01 X2.6354 Y-0.9727
G01 X2.6287 Y-0.9673
G01 X2.6205 Y-0.9633
G01 X2.6083 Y-0.9612
G01 X2.5992 Y-0.9622
G01 X2.5911 Y-0.9651
G01 X2.5810 Y-0.9723
G01 X2.5755 Y-0.9790
G01 X2.5716 Y-0.9872
G01 X2.5697 Y-0.9957
G00 Z0.1000
G00 X2.4697 Y-0.9957
G01 F3.00
G01 Z-0.0020
G01 F3.00
G01 X2.4695 Y-1.0205
G01 X2.4716 Y-1.0328
G01 X2.4734 Y-1.0372
G01 X2.4777 Y-1.0441
G01 X2.4810 Y-1.0477
G01 X2.4873 Y-1.0527
G01 X2.4950 Y-1.0565
G01 X2.4997 Y-1.0579
G01 X2.5080 Y-1.0588
G01 X2.5163 Y-1.0579
G01 X2.5245 Y-1.0551
G01 X2.5287 Y-1.0527
G01 X2.5354 Y-1.0473
G01 X2.5405 Y-1.0410
G01 X2.5442 Y-1.0332
G01 X2.5462 Y-1.0249
G01 X2.5462 Y-0.9951
G01 X2.5442 Y-0.9868
G01 X2.5405 Y-0.9791
G01 X2.5354 Y-0.9727
G01 X2.5287 Y-0.9673
G01 X2.5205 Y-0.9633
G01 X2.5083 Y-0.9612
G01 X2.4992 Y-0.9622
G01 X2.4911 Y-0.9651
G01 X2.4810 Y-0.9723
G01 X2.4755 Y-0.9790
G01 X2.4716 Y-0.9872
G01 X2.4697 Y-0.9957
G00 Z0.1000
G00 X2.3697 Y-0.9957
G01 F3.00
G01 Z-0.0020
G01 F3.00
G01 X2.3695 Y-1.0205
G01 X2.3716 Y-1.0328
G01 X2.3734 Y-1.0372
G01 X2.3777 Y-1.0441
G01 X2.3810 Y-1.0477
G01 X2.3873 Y-1.0527
G01 X2.3950 Y-1.0565
G01 X2.3997 Y-1.0579
G01 X2.4080 Y-1.0588
G01 X2.4163 Y-1.0579
G01 X2.4245 Y-1.0551
G01 X2.4287 Y-1.0527
G01 X2.4354 Y-1.0473
G01 X2.4405 Y-1.0410
G01 X2.4442 Y-1.0332
G01 X2.4462 Y-1.0249
G01 X2.4462 Y-0.9951
G01 X2.4442 Y-0.9868
G01 X2.4405 Y-0.9791
G01 X2.4354 Y-0.9727
G01 X2.4287 Y-0.9673
G01 X2.4205 Y-0.9633
G01 X2.4083 Y-0.9612
G01 X2.3992 Y-0.9622
G01 X2.3911 Y-0.9651
G01 X2.3810 Y-0.9723
G01 X2.3755 Y-0.9790
G01 X2.3716 Y-0.9872
G01 X2.3697 Y-0.9957
G00 Z0.1000
G00 X2.2721 Y-1.0584
G01 F3.00
G01 Z-0.0020
G01 F3.00
G01 X2.3420 Y-1.0588
G01 X2.3455 Y-1.0571
G01 X2.3465 Y-1.0543
G01 X2.3465 Y-0.9657
G01 X2.3448 Y-0.9622
G01 X2.3420 Y-0.9612
G01 X2.2740 Y-0.9612
G01 X2.2705 Y-0.9629
G01 X2.2695 Y-0.9657
G01 X2.2695 Y-1.0543
G01 X2.2702 Y-1.0567
G01 X2.2721 Y-1.0584
G00 Z0.1000
G00 X2.2677 Y-0.3957
G01 F3.00
G01 Z-0.0020
G01 F3.00
G01 X2.2675 Y-0.4205
G01 X2.2696 Y-0.4328
G01 X2.2714 Y-0.4372
G01 X2.2757 Y-0.4441
G01 X2.2790 Y-0.4477
G01 X2.2853 Y-0.4527
G01 X2.2930 Y-0.4565
G01 X2.2977 Y-0.4579
G01 X2.3060 Y-0.4588
G01 X2.3143 Y-0.4579
G01 X2.3225 Y-0.4551
G01 X2.3267 Y-0.4527
G01 X2.3334 Y-0.4473
G01 X2.3385 Y-0.4410
G01 X2.3422 Y-0.4332
G01 X2.3442 Y-0.4249
G01 X2.3442 Y-0.3951
G01 X2.3422 Y-0.3868
G01 X2.3385 Y-0.3791
G01 X2.3334 Y-0.3727
G01 X2.3267 Y-0.3673
G01 X2.3185 Y-0.3633
G01 X2.3063 Y-0.3612
G01 X2.2972 Y-0.3622
G01 X2.2891 Y-0.3651
G01 X2.2790 Y-0.3723
G01 X2.2735 Y-0.3790
G01 X2.2696 Y-0.3872
G01 X2.2677 Y-0.3957
G00 Z0.1000
G00 X2.3511 Y-0.3779
G01 F3.00
G01 Z-0.0020
G01 F3.00
G01 X2.3417 Y-0.3640
G01 X2.3253 Y-0.3531
G01 X2.3060 Y-0.3492
G01 X2.2867 Y-0.3531
G01 X2.2703 Y-0.3640
G01 X2.2594 Y-0.3804
G01 X2.2565 Y-0.3948
G01 X2.2565 Y-0.4252
G01 X2.2594 Y-0.4396
G01 X2.2703 Y-0.4560
G01 X2.2867 Y-0.4669
G01 X2.3060 Y-0.4708
G01 X2.3253 Y-0.4669
G01 X2.3417 Y-0.4560
G01 X2.3522 Y-0.4410
G01 X2.3554 Y-0.4393
G01 X2.3591 Y-0.4390
G01 X2.3621 Y-0.4398
G01 X2.3651 Y-0.4419
G01 X2.3781 Y-0.4581
G01 X2.3916 Y-0.4656
G01 X2.3916 Y-0.4540
G01 X2.3858 Y-0.4502
G01 X2.3801 Y-0.4445
G01 X2.3754 Y-0.4372
G01 X2.3736 Y-0.4328
G01 X2.3717 Y-0.4244
G01 X2.3715 Y-0.3995
G01 X2.3736 Y-0.3872
G01 X2.3775 Y-0.3790
G01 X2.3858 Y-0.3698
G01 X2.3955 Y-0.3641
G01 X2.3955 Y-0.3530
G01 X2.3948 Y-0.3526
G01 X2.3781 Y-0.3619
G01 X2.3656 Y-0.3775
G01 X2.3630 Y-0.3797
G01 X2.3601 Y-0.3809
G01 X2.3564 Y-0.3809
G01 X2.3535 Y-0.3798
G01 X2.3511 Y-0.3779
G00 Z0.1000
G00 X2.5697 Y-0.3957
G01 F3.00
G01 Z-0.0020
G01 F3.00
G01 X2.5695 Y-0.4205
